!!!!SEGMENT: pl-cz--iii-800_brykner-jerzy--laudate-pueri.krn
!!!cenid: 17xx:860
!!!COM: Brykner, Jerzy
!!!COM-rismid: pe30025739
!!!CDT: 1705-1760
!!!CNT: Polish
!!!OTL: Laudate pueri
!!!PDT:
!!!AGN: Sacred
!!!SMS-siglum: PL-CZ
!!!SMS-shelfmark: III-800
!!!SMS-shelfwork: W
!!!SMS-variant:
!!!SMS-altvar:
!!!NIFC-rismid: 300033582
!!!URL-scan: http://repozytorium.nifc.pl/skany/pl-cz-nut--iii-800
!!!ONB-nifc:
**kern	**fb	**kern	**kern	**kern	**kern	**text	**kern	**text	**kern	**text	**kern	**text
*part8	*part7	*part7	*part6	*part5	*part4	*part4	*part3	*part3	*part2	*part2	*part1	*part1
*group	*group	*group2	*group2	*group2	*group1	*group1	*group1	*group1	*group1	*group1	*group1	*group1
*staff8	*staff8	*staff7	*staff6	*staff5	*staff4	*staff4	*staff3	*staff3	*staff2	*staff2	*staff1	*staff1
*I"Organo.	*	*I"Viola	*I"Violino Secundo.	*I"Violino Primo.	*I"Baſso.	*	*I"Tenore.	*	*I"Alto.	*	*I"Soprano.	*
*I'org	*	*I'vla	*I'vl 2	*I'vl 1	*I'B	*	*I'T	*	*I'A	*	*I'C	*
*clefF4	*	*clefC3	*clefG2	*clefG2	*clefF4	*	*clefC4	*	*clefC3	*	*clefC1	*
*k[f#c#]	*	*k[f#c#]	*k[f#c#]	*k[f#c#]	*k[f#c#]	*	*k[f#c#]	*	*k[f#c#]	*	*k[f#c#]	*
*D:	*	*D:	*D:	*D:	*D:	*	*D:	*	*D:	*	*D:	*
*M3/4	*	*M3/4	*M3/4	*M3/4	*M3/4	*	*M3/4	*	*M3/4	*	*M3/4	*
=1	=1	=1	=1	=1	=1	=1	=1	=1	=1	=1	=1	=1
*2\right	*	*2\right	*2\right	*2\right	*2\right	*	*2\right	*	*2\right	*	*2\right	*
*	*above	*	*	*	*	*	*	*	*	*	*	*
!	!	!	!	!LO:TX:a:i:t=Allegro.	!	!	!	!	!	!	!	!
!	!	!LO:TX:a:t=P:problem:w źródle ta adnotacja zapisana na pięciolinii, przed pierwszym taktem	!	!	!	!	!	!	!	!	!	!
!LO:TX:b:i:t=Laudate pueri.	!	!LO:TX:b:i:t=Laudate pueri	!LO:TX:b:i:t=Laudate pueri.	!	!	!	!LO:TX:a:i:t=Allegro.	!	!	!	!	!
!LO:TX:a:i:t=ſolo. Allegro.	!	!LO:TX:a:t=P:problem:w źródle następujące krzyżyki przykluczowe, w następującej kolejności - c# f#	!LO:TX:a:i:t=Allegro.	!LO:TX:b:i:t=Laudate pueri.	!LO:TX:a:i:t=Allegro.	!	!LO:TX:a:t=P:problem:w źródle następujące krzyżyki przykluczowe, w następującej kolejności - c# F#	!	!LO:TX:a:i:t=Allegro.	!	!LO:TX:a:t=P:problem:w źródle następujące krzyżyki przykluczowe, w następującej kolejności - cc# f#	!
!	!	!	!	!	!LO:N:vis=00	!	!LO:N:vis=00	!	!LO:N:vis=00	!	!LO:N:vis=00	!
4D\	.	4d\	4d/|	4d/	0.r	.	0.r	.	0.r	.	0.r	.
4F#\	.	4f#\	4f#/|	4f#/	.	.	.	.	.	.	.	.
4A\	.	4a\	4a/|	4a/	.	.	.	.	.	.	.	.
=2	=2	=2	=2	=2	=2	=2	=2	=2	=2	=2	=2	=2
4D\	.	4d\	8d/L	8d/L	.	.	.	.	.	.	.	.
.	.	.	8d/	8f#/	.	.	.	.	.	.	.	.
4r	.	4r	8f#/	8a/	.	.	.	.	.	.	.	.
.	.	.	8f#/J	8dd/J	.	.	.	.	.	.	.	.
4r	.	4r	8.eT/L	8cc#\L	.	.	.	.	.	.	.	.
.	.	.	.	16b\L	.	.	.	.	.	.	.	.
.	.	.	(<32d/LL	16cc#\JJ	.	.	.	.	.	.	.	.
.	.	.	32e/JJJ)	.	.	.	.	.	.	.	.	.
=3	=3	=3	=3	=3	=3	=3	=3	=3	=3	=3	=3	=3
4D\	.	4d\	4f#/	4dd\	.	.	.	.	.	.	.	.
4F#\	.	4f#\	4f#/|	4f#/	.	.	.	.	.	.	.	.
4A\	.	4a\	4a/|	4a/	.	.	.	.	.	.	.	.
=4	=4	=4	=4	=4	=4	=4	=4	=4	=4	=4	=4	=4
4D\	.	4d\	8d/L	8d/L	.	.	.	.	.	.	.	.
.	.	.	8f#/J	8a/J	.	.	.	.	.	.	.	.
4r	.	4r	8a\L	8dd\L	.	.	.	.	.	.	.	.
.	.	.	8dd\J	8ff#\J	.	.	.	.	.	.	.	.
4r	.	4r	8cc#\L	8ee\L	.	.	.	.	.	.	.	.
.	.	.	16b\L	16dd\L	.	.	.	.	.	.	.	.
.	.	.	16cc#\JJ	16ee\JJ	.	.	.	.	.	.	.	.
=5	=5	=5	=5	=5	=5	=5	=5	=5	=5	=5	=5	=5
!	!	!	!	!	!LO:N:vis=00	!	!LO:N:vis=00	!	!LO:N:vis=00	!	!LO:N:vis=00	!
4D\	.	4d\	4dd\|	4ff#\	0.r	.	0.r	.	0.r	.	0.r	.
4F#\	.	4f#\	4f#/|	4f#/	.	.	.	.	.	.	.	.
4A\	.	4a\	4a/|	4a/	.	.	.	.	.	.	.	.
=6	=6	=6	=6	=6	=6	=6	=6	=6	=6	=6	=6	=6
!	!	!	!	!LO:TX:a:t=P:problem:mixed beam	!	!	!	!	!	!	!	!
4D\	.	4d\	8d/L	8d/L	.	.	.	.	.	.	.	.
.	.	.	8a/J	8ff#\	.	.	.	.	.	.	.	.
4r	.	4r	8dd\L	8aa\	.	.	.	.	.	.	.	.
.	.	.	8ff#\J	8ddd\J	.	.	.	.	.	.	.	.
4r	.	4r	8.eeT\L	8ccc#\L	.	.	.	.	.	.	.	.
.	.	.	.	16bb\L	.	.	.	.	.	.	.	.
.	.	.	(<32dd\LL	16ccc#\JJ	.	.	.	.	.	.	.	.
.	.	.	32ee\JJJ)	.	.	.	.	.	.	.	.	.
=7	=7	=7	=7	=7	=7	=7	=7	=7	=7	=7	=7	=7
8r	.	8r	8ff#\L	4ddd\	.	.	.	.	.	.	.	.
8D\L	.	8f#\L	8aa\	.	.	.	.	.	.	.	.	.
8D\	.	8f#\	8aa\	8r	.	.	.	.	.	.	.	.
8E\	.	8g\	8aa\	8aa\L	.	.	.	.	.	.	.	.
8F#\	.	8a\	8aa\	8aa\	.	.	.	.	.	.	.	.
8D\J	.	8f#\J	8aa\J	8aa\J	.	.	.	.	.	.	.	.
!LO:LB:g=original	!	!	!LO:LB:g=original	!LO:LB:g=original	!	!	!	!	!	!	!	!
=8	=8	=8	=8	=8	=8	=8	=8	=8	=8	=8	=8	=8
8G\L	X 9	8d/L	8aa\L	16bb\LL	.	.	.	.	.	.	.	.
!	!	!	!	!LO:SIC:s=16cccn	!	!	!	!	!	!	!	!
.	.	.	.	16ccc-X\	.	.	.	.	.	.	.	.
8F#\	.	8D/J	8aa\	16bb\	.	.	.	.	.	.	.	.
!	!	!	!	!LO:SIC:s=16cccn	!	!	!	!	!	!	!	!
.	.	.	.	16ccc-\JJ	.	.	.	.	.	.	.	.
8G\	X 8	8g\L	8gg\	16bb\LL	.	.	.	.	.	.	.	.
!	!	!	!	!LO:SIC:s=16cccn	!	!	!	!	!	!	!	!
.	.	.	.	16ccc-\	.	.	.	.	.	.	.	.
8A\	.	8a\	8gg\	16bb\	.	.	.	.	.	.	.	.
!	!	!	!	!LO:SIC:s=16cccn	!	!	!	!	!	!	!	!
.	.	.	.	16ccc-\JJ	.	.	.	.	.	.	.	.
8B\	.	8b\	8gg\	16bb\LL	.	.	.	.	.	.	.	.
!	!	!	!	!LO:SIC:s=16cccn	!	!	!	!	!	!	!	!
.	.	.	.	16ccc-\	.	.	.	.	.	.	.	.
8G\J	.	8g\J	8gg\J	16bb\	.	.	.	.	.	.	.	.
!	!	!	!	!LO:SIC:s=16cccn	!	!	!	!	!	!	!	!
.	.	.	.	16ccc-\JJ	.	.	.	.	.	.	.	.
!	!	!LO:LB:g=original	!	!	!	!	!	!	!	!	!	!
=9	=9	=9	=9	=9	=9	=9	=9	=9	=9	=9	=9	=9
!	!	!	!	!	!LO:N:vis=00	!	!LO:N:vis=00	!	!LO:N:vis=00	!	!LO:N:vis=00	!
8D\L	X 4	8d\L	8gg\L	16aa\LL	0.r	.	0.r	.	0.r	.	0.r	.
.	.	.	.	16bb\	.	.	.	.	.	.	.	.
8C#\	.	8c#\	8gg\	16aa\	.	.	.	.	.	.	.	.
.	.	.	.	16bb\JJ	.	.	.	.	.	.	.	.
8D\	X 3	8d\	8ff#\	16aa\LL	.	.	.	.	.	.	.	.
.	.	.	.	16bb\	.	.	.	.	.	.	.	.
8E\	.	8e\	8ff#\	16aa\	.	.	.	.	.	.	.	.
.	.	.	.	16bb\JJ	.	.	.	.	.	.	.	.
8F#\	.	8f#\	8ff#\	16aa\LL	.	.	.	.	.	.	.	.
.	.	.	.	16bb\	.	.	.	.	.	.	.	.
8D\J	.	8d\J	8ff#\J	16aa\	.	.	.	.	.	.	.	.
.	.	.	.	16bb\JJ	.	.	.	.	.	.	.	.
=10	=10	=10	=10	=10	=10	=10	=10	=10	=10	=10	=10	=10
8E\L	X 9	8e\L	8ff#\L	16gg\LL	.	.	.	.	.	.	.	.
.	.	.	.	16aa\	.	.	.	.	.	.	.	.
8D\	.	8d\	8ff#\	16gg\	.	.	.	.	.	.	.	.
.	.	.	.	16aa\JJ	.	.	.	.	.	.	.	.
8E\	X 8	8e\	8ee\	16gg\LL	.	.	.	.	.	.	.	.
.	.	.	.	16aa\	.	.	.	.	.	.	.	.
8F#\	.	8f#\	8ee\	16gg\	.	.	.	.	.	.	.	.
.	.	.	.	16aa\JJ	.	.	.	.	.	.	.	.
8G\	.	8g\	8ee\	16gg\LL	.	.	.	.	.	.	.	.
.	.	.	.	16aa\	.	.	.	.	.	.	.	.
8A\J	.	8a\J	8ee\J	16gg\	.	.	.	.	.	.	.	.
.	.	.	.	16aa\JJ	.	.	.	.	.	.	.	.
=11	=11	=11	=11	=11	=11	=11	=11	=11	=11	=11	=11	=11
!	!	!LO:SIC:s=8d	!	!	!	!	!	!	!	!	!	!
8D\L	X 9	8e\L	8ee\L	16ff#\LL	.	.	.	.	.	.	.	.
.	.	.	.	16gg\	.	.	.	.	.	.	.	.
8C#\	.	8c#\	8ee\	16ff#\	.	.	.	.	.	.	.	.
.	.	.	.	16gg\JJ	.	.	.	.	.	.	.	.
8D\	X 8	8d\	8dd\	16ff#\LL	.	.	.	.	.	.	.	.
.	.	.	.	16gg\	.	.	.	.	.	.	.	.
8E\	.	8e\	8dd\	16ff#\	.	.	.	.	.	.	.	.
.	.	.	.	16gg\JJ	.	.	.	.	.	.	.	.
8F#\	.	8f#\	8dd\	16ff#\LL	.	.	.	.	.	.	.	.
.	.	.	.	16gg\	.	.	.	.	.	.	.	.
8D\J	.	8d\J	8dd\J	16ff#\	.	.	.	.	.	.	.	.
.	.	.	.	16gg\JJ	.	.	.	.	.	.	.	.
=12	=12	=12	=12	=12	=12	=12	=12	=12	=12	=12	=12	=12
4A\	.	4a\	4cc#\	8ee\L	.	.	.	.	.	.	.	.
.	.	.	.	8aa\	.	.	.	.	.	.	.	.
4r	.	4r	8r	8ee\	.	.	.	.	.	.	.	.
.	.	.	8cc#\	8a\J	.	.	.	.	.	.	.	.
4A\	6 4	4a\	16dd\LL	16ff#\LL	.	.	.	.	.	.	.	.
.	.	.	16cc#\	16ee\	.	.	.	.	.	.	.	.
.	.	.	16dd\	16ff#\	.	.	.	.	.	.	.	.
.	.	.	16ee\JJ	16gg\JJ	.	.	.	.	.	.	.	.
!	!	!	!	!LO:LB:g=original	!	!	!	!	!	!	!	!
=13	=13	=13	=13	=13	=13	=13	=13	=13	=13	=13	=13	=13
!	!	!	!	!	!LO:N:vis=00	!	!LO:N:vis=00	!	!LO:N:vis=00	!	!LO:N:vis=00	!
4A\	5 3	4A/	4cc#\	8ee\L	0.r	.	0.r	.	0.r	.	0.r	.
.	.	.	.	8aa\	.	.	.	.	.	.	.	.
4r	.	4r	8r	8ee\	.	.	.	.	.	.	.	.
.	.	.	8cc#\	8a\J	.	.	.	.	.	.	.	.
4A\	.	4c#/	16ee\LL	16gg\LL	.	.	.	.	.	.	.	.
.	.	.	16dd\	16ff#\	.	.	.	.	.	.	.	.
.	.	.	16ee\	16gg\	.	.	.	.	.	.	.	.
.	.	.	16cc#\JJ	16aa\JJ	.	.	.	.	.	.	.	.
=14	=14	=14	=14	=14	=14	=14	=14	=14	=14	=14	=14	=14
4D\	.	4A/	4dd\	8ff#\L	.	.	.	.	.	.	.	.
.	.	.	.	8dd\J	.	.	.	.	.	.	.	.
4r	.	4r	8r	8a/L	.	.	.	.	.	.	.	.
.	.	.	8f#/	8d/J	.	.	.	.	.	.	.	.
4D\	6 4	4d\	16g/LL	16b\LL	.	.	.	.	.	.	.	.
.	.	.	16f#/	16a\	.	.	.	.	.	.	.	.
.	.	.	16g/	16b\	.	.	.	.	.	.	.	.
.	.	.	16a/JJ	16cc#\JJ	.	.	.	.	.	.	.	.
=15	=15	=15	=15	=15	=15	=15	=15	=15	=15	=15	=15	=15
4D\	5 3	4d\	4f#/	8a\L	.	.	.	.	.	.	.	.
.	.	.	.	8dd\J	.	.	.	.	.	.	.	.
!	!	!	!LO:LB:g=original	!	!	!	!	!	!	!	!	!
4r	.	4r	8r	8a/L	.	.	.	.	.	.	.	.
.	.	.	8f#/	8d/J	.	.	.	.	.	.	.	.
!	!	!	!	!LO:SIC:s=16ccn	!	!	!	!	!	!	!	!
4D\	.	4f#\	16a/LL	16cc-X\LL	.	.	.	.	.	.	.	.
.	.	.	16g/	16b\	.	.	.	.	.	.	.	.
!	!	!	!	!LO:SIC:s=16ccn	!	!	!	!	!	!	!	!
.	.	.	16a/	16cc-\	.	.	.	.	.	.	.	.
.	.	.	16f#/JJ	16dd\JJ	.	.	.	.	.	.	.	.
=16	=16	=16	=16	=16	=16	=16	=16	=16	=16	=16	=16	=16
4G\	.	4d\	8g/L	8b/L	.	.	.	.	.	.	.	.
.	.	.	8d/J	16a/L	.	.	.	.	.	.	.	.
.	.	.	.	16g/JJ	.	.	.	.	.	.	.	.
!LO:LB:g=original	!	!	!	!	!	!	!	!	!	!	!	!
!LO:TX:a:t=P:problem:mixed beam	!	!	!	!	!	!	!	!	!	!	!	!
8F#\L	.	8F#/L	4d/	8a/L	.	.	.	.	.	.	.	.
8G\	.	8G/	.	8b/J	.	.	.	.	.	.	.	.
8A\	.	8.A/	4c#/	8e/L	.	.	.	.	.	.	.	.
8AA/J	.	.	.	8a/J	.	.	.	.	.	.	.	.
.	.	16A/Jk	.	.	.	.	.	.	.	.	.	.
=17	=17	=17	=17	=17	=17	=17	=17	=17	=17	=17	=17	=17
4D\	.	4d\	4d/	4d/	4D\	Lau-	4A/	Lau-	4f#\	Lau-	4dd\	Lau-
!LO:TX:a:i:t=T.	!	!	!	!	!	!	!	!	!	!	!	!
4F#\	.	4f#\	4r	4r	4F#\	-da-	4A/	-da-	4f#\	-da-	4dd\	-da-
4A\	.	4a\	4r	4r	4A\	-te	4A/	-te	4e\	-te	4cc#\	-te
=18	=18	=18	=18	=18	=18	=18	=18	=18	=18	=18	=18	=18
4D\	.	4d\	8r	8r	8.D\	pu-	8.A/	pu-	8.f#\	pu-	8.dd\	pu-
!	!	!	!	!LO:TX:a:t=P:problem:mixed beam	!	!	!	!	!	!	!	!
.	.	.	8d/L	8f#/L	.	.	.	.	.	.	.	.
.	.	.	.	.	16D\	-e-	16A/	-e-	16f#\	-e-	16dd\	-e-
4D\	.	4r	8f#/	8a/	4D\	-ri	4A/	-ri	4f#\	-ri	4dd\	-ri,
.	.	.	8f#/J	8dd\J	.	.	.	.	.	.	.	.
4r	.	4r	8.eT/L	8cc#\L	4r	.	4r	.	4r	.	4r	.
.	.	.	.	16b\L	.	.	.	.	.	.	.	.
.	.	.	(<32d/LL	16cc#\JJ	.	.	.	.	.	.	.	.
.	.	.	32e/JJJ)	.	.	.	.	.	.	.	.	.
=19	=19	=19	=19	=19	=19	=19	=19	=19	=19	=19	=19	=19
4D\	.	4d\	4f#/	4dd\	4D\	lau-	4A/	lau-	4f#\	lau-	4dd\	Lau-
4F#\	.	4f#\	4r	4r	4F#\	-da-	4A/	-da-	4f#\	-da-	4dd\	-da-
4A\	.	4a\	4r	4r	4A\	-te	4A/	-te	4e\	-te	4cc#\	-te
=20	=20	=20	=20	=20	=20	=20	=20	=20	=20	=20	=20	=20
4D\	.	4d\	8r	8r	8.D\	Do-	8.A/	Do-	8.f#\	Do-	8.dd\	Do-
!	!	!	!LO:TX:a:t=P:problem:mixed beam	!	!	!	!	!	!	!	!	!
.	.	.	8f#/L	8a\L	.	.	.	.	.	.	.	.
.	.	.	.	.	16D\	-mi-	16A/	-mi-	16f#\	-mi-	16dd\	-mi-
4D\	.	4r	8a/	8dd\	4D\	-num	4A/	-num	4f#\	-num	4dd\	-num,
.	.	.	8dd\J	8ff#\J	.	.	.	.	.	.	.	.
!	!	!	!	!LO:LB:g=original	!	!	!	!	!	!	!	!
4r	.	4r	8.cc#t\L	8ee\L	4r	.	4r	.	4r	.	4r	.
.	.	.	.	16dd\L	.	.	.	.	.	.	.	.
.	.	.	(>32b\LL	16ee\JJ	.	.	.	.	.	.	.	.
.	.	.	32cc#\JJJ)	.	.	.	.	.	.	.	.	.
=21	=21	=21	=21	=21	=21	=21	=21	=21	=21	=21	=21	=21
4D\	.	4d\	4dd\	4ff#\	4D\	lau-	4A/	lau-	4f#\	lau-	4dd\	Lau-
4F#\	.	4f#\	4r	4r	4F#\	-da-	4A/	-da-	4f#\	-da-	4dd\	-da-
4A\	.	4a\	4r	4r	4A\	-te	4A/	-te	4e\	-te	4cc#\	-te
!	!	!LO:LB:g=original	!	!	!	!	!	!	!	!	!	!
=22	=22	=22	=22	=22	=22	=22	=22	=22	=22	=22	=22	=22
4D\	.	4d\	8r	8r	4D\	no-	4A/	no-	4f#\	no-	4dd\	No-
.	.	.	8dd\L	8ff#\L	.	.	.	.	.	.	.	.
4D\	.	4r	8ff#\	8aa\	4D\	-men	4A/	-men	4f#\	-men	4dd\	-men
.	.	.	8ff#\J	8ddd\J	.	.	.	.	.	.	.	.
4r	.	4r	8.ee\L	8ccc#\L	4r	.	4r	.	4r	.	4r	.
.	.	.	.	16bb\L	.	.	.	.	.	.	.	.
.	.	.	(>32dd\LL	16ccc#\JJ	.	.	.	.	.	.	.	.
.	.	.	32ee\JJJ)	.	.	.	.	.	.	.	.	.
!	!	!	!	!	!	!	!LO:LB:g=original	!	!LO:LB:g=original	!	!LO:LB:g=original	!
=23	=23	=23	=23	=23	=23	=23	=23	=23	=23	=23	=23	=23
*	*	*	*	*	*	*	*	*	*	*	*	*ij
8r	.	8r	8ff#\L	4ddd\	8r	.	8r	.	8r	.	8r	.
8D\L	.	8d\L	8aa\	.	8D\	lau-	8A/	lau-	8a\	lau-	8a\	Lau-
!	!	!	!	!	!LO:LB:g=original	!	!	!	!	!	!	!
8D\	.	8d\	8aa\	8r	8D\	-da-	8A/	-da-	8a\	-da-	8a\	-da-
8E\	.	8e\	8aa\J	8aa\L	8E\	-te	8G/	-te	8a\	-te	8a\	-te
!	!	!	!LO:LB:g=original	!	!	!	!	!	!	!	!	!
8F#\	.	8f#\	8aa\L	8aa\	8F#\	no-	8F#/	no-	8a\	no-	8a\	No-
8D\J	.	8d\J	8aa\J	8aa\J	8D\	-men	8d\	-men	8a\	-men	8a\	-men
*	*	*	*	*	*	*	*	*	*	*	*	*Xij
=24	=24	=24	=24	=24	=24	=24	=24	=24	=24	=24	=24	=24
8G\L	X 9	8g\L	8aa\L	16bb\LL	8G\L	Do-	[>2.d\	Do-	4a\	do-	2.b\	Do-
!	!	!	!	!LO:SIC:s=16cccn	!	!	!	!	!	!	!	!
.	.	.	.	16ccc-X\	.	.	.	.	.	.	.	.
8F#\	.	8f#\	8aa\	16bb\	8F#\	.	.	.	.	.	.	.
!	!	!	!	!LO:SIC:s=16cccn	!	!	!	!	!	!	!	!
.	.	.	.	16ccc-\JJ	.	.	.	.	.	.	.	.
8G\	X 8	8g\	8gg\	16bb\LL	8G\	.	.	.	[>2g\	.	.	.
!	!	!	!	!LO:SIC:s=16cccn	!	!	!	!	!	!	!	!
.	.	.	.	16ccc-\	.	.	.	.	.	.	.	.
8A\	.	8a\	8gg\	16bb\	8A\	.	.	.	.	.	.	.
!	!	!	!	!LO:SIC:s=16cccn	!	!	!	!	!	!	!	!
.	.	.	.	16ccc-\JJ	.	.	.	.	.	.	.	.
8B\	.	8b\	8gg\	16bb\LL	8B\	.	.	.	.	.	.	.
!	!	!	!	!LO:SIC:s=16cccn	!	!	!	!	!	!	!	!
.	.	.	.	16ccc-\	.	.	.	.	.	.	.	.
8G\J	.	8g\J	8gg\J	16bb\	8G\J	.	.	.	.	.	.	.
!	!	!	!	!LO:SIC:s=16cccn	!	!	!	!	!	!	!	!
.	.	.	.	16ccc-\JJ	.	.	.	.	.	.	.	.
=25	=25	=25	=25	=25	=25	=25	=25	=25	=25	=25	=25	=25
!	!	!LO:SIC:s=8d	!	!	!	!	!	!	!	!	!	!
8D\L	X 4	8e\L	8gg\L	16aa\LL	8D\L	.	2.d\]	.	4g\]	.	2.a\	.
.	.	.	.	16bb\	.	.	.	.	.	.	.	.
8C#\	.	8c#\	8gg\	16aa\	8C#\	.	.	.	.	.	.	.
.	.	.	.	16bb\JJ	.	.	.	.	.	.	.	.
8D\	X 3	8d\	8ff#\	16aa\LL	8D\	.	.	.	[>2f#\	.	.	.
.	.	.	.	16bb\	.	.	.	.	.	.	.	.
8E\	.	8e\	8ff#\	16aa\	8E\	.	.	.	.	.	.	.
.	.	.	.	16bb\JJ	.	.	.	.	.	.	.	.
8F#\	.	8f#\	8ff#\	16aa\LL	8F#\	.	.	.	.	.	.	.
.	.	.	.	16bb\	.	.	.	.	.	.	.	.
8D\J	.	8d\J	8ff#\J	16aa\	8D\J	.	.	.	.	.	.	.
.	.	.	.	16bb\JJ	.	.	.	.	.	.	.	.
!LO:LB:g=original	!	!	!	!	!	!	!	!	!	!	!	!
=26	=26	=26	=26	=26	=26	=26	=26	=26	=26	=26	=26	=26
8E\L	X 9	8e\L	8ff#\L	16gg\LL	8E\L	.	[>2B\	.	4f#\]	.	2.g/	.
.	.	.	.	16aa\	.	.	.	.	.	.	.	.
8D\	.	8d\	8ff#\	16gg\	8D\	.	.	.	.	.	.	.
.	.	.	.	16aa\JJ	.	.	.	.	.	.	.	.
8E\	X 8	8e\	8ee\	16gg\LL	8E\	.	.	.	[>2e\	.	.	.
.	.	.	.	16aa\	.	.	.	.	.	.	.	.
8F#\	.	8f#\	8ee\	16gg\	8F#\	.	.	.	.	.	.	.
.	.	.	.	16aa\JJ	.	.	.	.	.	.	.	.
8G\	.	8g\	8ee\	16gg\LL	8G\	.	8B\L]	.	.	.	.	.
.	.	.	.	16aa\	.	.	.	.	.	.	.	.
8A\J	.	8a\J	8ee\J	16gg\	8A\J	.	8c#\J	.	.	.	.	.
.	.	.	.	16aa\JJ	.	.	.	.	.	.	.	.
!	!	!	!	!LO:LB:g=original	!	!	!	!	!	!	!	!
=27	=27	=27	=27	=27	=27	=27	=27	=27	=27	=27	=27	=27
8D\L	X 4	8d\L	8ee\L	16ff#\LL	8D\L	.	2A/	.	4e\]	.	2f#/	.
.	.	.	.	16gg\	.	.	.	.	.	.	.	.
8C#\	.	8c#\	8ee\	16ff#\	8C#\	.	.	.	.	.	.	.
.	.	.	.	16gg\JJ	.	.	.	.	.	.	.	.
8D\	X 3	8d\	8dd\	16ff#\LL	8D\	.	.	.	4.d\	.	.	.
.	.	.	.	16gg\	.	.	.	.	.	.	.	.
8E\	.	8e\	8dd\	16ff#\	8E\J	.	.	.	.	.	.	.
.	.	.	.	16gg\JJ	.	.	.	.	.	.	.	.
8F#\	.	8f#\	8dd\	16ff#\LL	8F#\L	.	4A/	-mi-	.	.	4f#/	-mi-
.	.	.	.	16gg\	.	.	.	.	.	.	.	.
8D\J	.	8d\J	8dd\J	16ff#\	8D\J	-mi-	.	.	8d\	-mi-	.	.
.	.	.	.	16gg\JJ	.	.	.	.	.	.	.	.
=28	=28	=28	=28	=28	=28	=28	=28	=28	=28	=28	=28	=28
4A\	.	4a\	8cc#\L	8ee\L	4A\	-ni	4A/	-ni	4c#\	-ni	4e/	-ni,
.	.	.	8cc#\	8aa\	.	.	.	.	.	.	.	.
8r	.	8r	8dd\	8ee\	8r	.	8r	.	8r	.	8r	.
8A\	.	8a\	8dd\J	8a\J	8A\	lau-	8c#\	lau-	8e\	lau-	8a\	lau-
4D/	.	4d\	16dd\LL	16ff#\LL	4D/	-da-	4d\	-da-	4f#\	-da-	4a\	-da-
.	.	.	16cc#\	16ee\	.	.	.	.	.	.	.	.
.	.	.	16dd\	16ff#\	.	.	.	.	.	.	.	.
.	.	.	16ee\JJ	16gg\JJ	.	.	.	.	.	.	.	.
=29	=29	=29	=29	=29	=29	=29	=29	=29	=29	=29	=29	=29
4AA/	.	4A/	8cc#\L	8ee\L	4AA/	-te	4c#\	-te	4e\	-te	4a\	-te
.	.	.	8ee\	8aa\	.	.	.	.	.	.	.	.
8r	.	8r	8cc#\	8ee\	8r	.	8r	.	8r	.	8r	.
*	*	*	*	*	*	*ij	*	*ij	*	*ij	*	*
8A\	.	8a\	8a\J	8cc#\J	8A\	lau-	8c#\	lau-	8e\	lau-	8cc#\	lau-
4A\	X 7	4a\	16ee\LL	16gg\LL	4A\	-da-	4e\	-da-	4g\	-da-	4cc#\	-da-
.	.	.	16dd\	16ff#\	.	.	.	.	.	.	.	.
.	.	.	16ee\	16gg\	.	.	.	.	.	.	.	.
.	.	.	16cc#\JJ	16aa\JJ	.	.	.	.	.	.	.	.
!	!	!	!	!	!	!	!	!	!	!	!LO:LB:g=original	!
=30	=30	=30	=30	=30	=30	=30	=30	=30	=30	=30	=30	=30
!	!	!	!LO:TX:a:t=P:problem:mixed beam	!	!	!	!	!	!	!	!	!
4D\	.	4d\	8dd\L	8ff#\L	4D/	-te	4d\	-te	4f#\	-te	4dd\	-te
*	*	*	*	*	*	*	*	*Xij	*	*Xij	*	*
.	.	.	8f#/	8dd\J	.	.	.	.	.	.	.	.
8r	.	4r	8f#/	8a/L	8r	.	8r	.	8r	.	8r	.
*	*	*	*	*	*	*	*	*	*	*	*	*ij
!	!	!	!	!	!LO:LB:g=original	!	!	!	!	!	!	!
8D\	.	.	8f#/J	8d/J	8A\	lau-	8d\	lau-	8f#\	lau-	8a\	lau-
!	!	!	!LO:LB:g=original	!	!	!	!	!	!	!	!	!
4G\	.	8d\L	16g/LL	16b/LL	4A\	-da-	4d\	-da-	4g\	-da-	4b\	-da-
.	.	.	16f#/	16a/	.	.	.	.	.	.	.	.
.	.	8g\J	16g/	16b/	.	.	.	.	.	.	.	.
.	.	.	16a/JJ	16cc#/JJ	.	.	.	.	.	.	.	.
!	!	!	!	!	!	!	!LO:LB:g=original	!	!LO:LB:g=original	!	!	!
=31	=31	=31	=31	=31	=31	=31	=31	=31	=31	=31	=31	=31
4D\	.	4d\	8f#/L	8a/L	4D\	-te	4d\	-te	4f#\	-te	4a\	-te
.	.	.	8a/	8dd/	.	.	.	.	.	.	.	.
8r	.	8r	8f#/	8a/	8r	.	8r	.	8r	.	8r	.
*	*	*	*	*	*	*	*	*ij	*	*ij	*	*
8D\	.	8d\	8f#/J	8d/J	8D\	lau-	8d\	lau-	8f#\	lau-	8a\	lau-
!	!	!	!	!LO:SIC:s=16ccn	!	!	!	!	!	!	!	!
4D\	.	4d\	16a/LL	16cc-X\LL	4D\	-da-	8A\L	-da-	4f#\	-da-	4ccn\	-da-
.	.	.	16g/	16b\	.	.	.	.	.	.	.	.
!	!	!	!	!LO:SIC:s=16ccn	!	!	!	!	!	!	!	!
.	.	.	16a/	16cc-\	.	.	8d\J	.	.	.	.	.
.	.	.	16f#/JJ	16dd\JJ	.	.	.	.	.	.	.	.
!	!	!LO:LB:g=original	!	!	!	!	!	!	!	!	!	!
=32	=32	=32	=32	=32	=32	=32	=32	=32	=32	=32	=32	=32
4G\	.	4g\	8g/L	8b/L	4G\	-te	4d\	-te	4g\	-te	4b\	-te
.	.	.	8g/	8dd/	.	.	.	.	.	.	.	.
8r	.	8r	8g/	8b/	8r	.	8r	.	8r	.	8r	.
8E\	.	8e\	8g#X/J	8e/J	8E\	lau-	8e\	lau-	8g#X\	lau-	8dd\	lau-
4E\	.	4e\	16b/LL	16dd\LL	4E\	-da-	4B\	-da-	4g#\	-da-	4dd\	-da-
.	.	.	16a/	16cc#\	.	.	.	.	.	.	.	.
.	.	.	16b/	16dd\	.	.	.	.	.	.	.	.
.	.	.	16g#X/JJ	16ee\JJ	.	.	.	.	.	.	.	.
=33	=33	=33	=33	=33	=33	=33	=33	=33	=33	=33	=33	=33
4A\	.	4a\	4a/	8cc#\L	4A\	-te	4A\	-te	8a\	-te	4cc#\	-te
*	*	*	*	*	*	*Xij	*	*	*	*Xij	*	*
.	.	.	.	8ee\	.	.	.	.	8e\	lau-	.	.
8r	.	8r	8r	8aa\	8r	.	8r	.	8a\L	-da-	8r	.
8A\L	.	8a\L	8cc#/L	8gg\	8A\	lau-	8e\	lau-	8g\	.	8cc#\	lau-
8d\	.	8dd\	8a/	8ff#\	8d\	-da-	8d\	-da-	8f#\	.	8a\	-da-
8c#\J	.	8cc#\J	8cc#/J	8ee\J	8c#\	-te	8A\	-te	8e\J	.	8cc#\	-te
*	*	*	*	*	*	*	*	*Xij	*	*	*	*Xij
!LO:LB:g=original	!	!	!	!LO:LB:g=original	!	!	!	!	!	!	!	!
=34	=34	=34	=34	=34	=34	=34	=34	=34	=34	=34	=34	=34
4B\	.	4b\	8f#/L	8dd\L	4B\	no-	4B\	no-	4d\	.	4dd\	No-
.	.	.	16g#X/L	8cc#\J	.	.	.	.	.	.	.	.
.	.	.	16a/JJ	.	.	.	.	.	.	.	.	.
8B\L	.	8b\L	4.b/	8b\L	8B\	-men	8B\	-men	8f#\	-te	8dd\	-men
*	*	*	*	*	*	*	*	*	*	*ij	*	*
!	!	!LO:SIC:s=8an	!	!	!	!	!	!	!	!	!	!
8A\	.	8a#X\	.	16cc#\L	8A\	lau-	8c#\	lau-	8a\	lau-	8ee\	lau-
.	.	.	.	16dd\JJ	.	.	.	.	.	.	.	.
8G#X\	.	8g#X\	.	8ee\L	8G#X\	-da-	8B\	-da-	8b\	-da-	8ee\	-da-
8E\J	.	8e\J	8b/	8ee\J	8E\	-te	8B\	-te	8g#X\	-te	8ee\	-te
*	*	*	*	*	*	*	*	*	*	*Xij	*	*
=35	=35	=35	=35	=35	=35	=35	=35	=35	=35	=35	=35	=35
8F#\L	.	8f#\L	8a/L	8cc#\L	8F#\	no-	8A/	no-	8a\	no-	8cc#\	No-
8D\J	.	8d\J	8a/J	8ee\J	8D\	-men	8A/	-men	8f#\	-men	8dd\	-men
*	*reverse	*	*	*	*	*	*	*	*	*	*	*
!	!	!LO:SIC:s=2ee	!	!	!	!	!	!	!	!	!	!
2E\	X 4#	2f#\	4a/	4b\	4.E\	Do-	4.G#X/	Do-	4.e\	Do-	4.b\	Do-
*	*Xreverse	*	*	*	*	*	*	*	*	*	*	*
.	.	.	4g#X/	4ee\	.	.	.	.	.	.	.	.
!	!	!	!	!	!	!	!	!	!	!	!LO:LB:g=original	!
.	.	.	.	.	8E\	-mi-	8G#/	-mi-	8e\	-mi-	8b\	-mi-
=36	=36	=36	=36	=36	=36	=36	=36	=36	=36	=36	=36	=36
!	!	!LO:SIC:s=4A	!	!	!	!	!	!	!	!	!	!
4AA/	.	4G/	4a/	8cc#\L	4AA/	-ni	4A/	-ni	4e\	-ni	4cc#\	-ni
.	.	.	.	8a\	.	.	.	.	.	.	.	.
4r	.	4r	8r	8ee\	4r	.	4r	.	4r	.	4r	.
.	.	.	8cc#\	8aa\J	.	.	.	.	.	.	.	.
4E\	X #	4d\	8b\L	8gg#X\L	4r	.	4r	.	4r	.	4r	.
.	.	.	16a\L	16ff#\L	.	.	.	.	.	.	.	.
.	.	.	16b\JJ	16gg#\JJ	.	.	.	.	.	.	.	.
=37	=37	=37	=37	=37	=37	=37	=37	=37	=37	=37	=37	=37
!	!	!LO:SIC:s=4A	!	!LO:TX:a:t=P:problem:mixed beam	!	!	!	!	!	!	!LO:TX:a:t=3	!
!	!	!	!	!	!LO:N:vis=0	!	!LO:N:vis=0	!	!LO:N:vis=0	!	!LO:N:vis=0	!
4AA/	.	4G/	4cc#\	8aa\L	0.r	.	1.r	.	1.r	.	1.r	.
.	.	.	.	8a/J	.	.	.	.	.	.	.	.
!	!	!	!LO:LB:g=original	!	!	!	!	!	!	!	!	!
4r	.	4r	8r	8cc#\L	.	.	.	.	.	.	.	.
.	.	.	8cc#\	8ee\J	.	.	.	.	.	.	.	.
!	!	!LO:SIC:s=4a	!	!LO:SIC:s=16ggn	!	!	!	!	!	!	!	!
4A\	.	4g\	16ee\LL	16gg-X\LL	.	.	.	.	.	.	.	.
.	.	.	16dd\	16ff#\	.	.	.	.	.	.	.	.
!	!	!	!	!LO:SIC:s=16ggn	!	!	!	!	!	!	!	!
.	.	.	16ee\	16gg-\	.	.	.	.	.	.	.	.
.	.	.	16cc#\JJ	16aa\JJ	.	.	.	.	.	.	.	.
=38	=38	=38	=38	=38	=38	=38	=38	=38	=38	=38	=38	=38
4D/	.	4A/	4dd\	8ff#\L	.	.	.	.	.	.	.	.
.	.	.	.	8a\	.	.	.	.	.	.	.	.
4r	.	4r	8r	8dd\	.	.	.	.	.	.	.	.
.	.	.	8dd#X\	8ff#\J	.	.	.	.	.	.	.	.
4D#X/	X 6	4B/	16ff#\LL	16aa\LL	.	.	.	.	.	.	.	.
.	.	.	16ee\	16gg\	.	.	.	.	.	.	.	.
.	.	.	16ff#\	16aa\	.	.	.	.	.	.	.	.
.	.	.	16dd#X\JJ	16bb\JJ	.	.	.	.	.	.	.	.
=39	=39	=39	=39	=39	=39	=39	=39	=39	=39	=39	=39	=39
4E\	X #	4B/	8b/L	8gg#X\L	.	.	2.r	.	2.r	.	2.r	.
.	.	.	16a/L	16ff#\L	.	.	.	.	.	.	.	.
.	.	.	16g#X/JJ	16ee\JJ	.	.	.	.	.	.	.	.
8C#/L	X 6	4e\	8a/L	8aa\L	.	.	.	.	.	.	.	.
8D/J	.	.	8b/J	8dd\J	.	.	.	.	.	.	.	.
4E\	X #	4e\	8.g#Xt/L	8.bT/L	.	.	.	.	.	.	.	.
.	.	.	16a/Jk	16a/Jk	.	.	.	.	.	.	.	.
=40	=40	=40	=40	=40	=40	=40	=40	=40	=40	=40	=40	=40
!	!	!	!	!	!	!	!	!	!	!	!LO:TX:a:i:t=Soli	!
4AA/	.	4e\	4a/	4a/	.	.	4A\	ſit	4a\	Sit	4cc#\	Sit
*clefC4	*	*	*	*	*	*	*	*	*	*	*	*
4c#\	X 6	4r	4r	4r	.	.	4c#\	no-	4a\	no-	4cc#\	No-
4e\	X #	4r	4r	4r	.	.	4e\	-men	4g#X\	-men	4b\	-men
!	!	!	!	!	!	!	!LO:LB:g=original	!	!LO:LB:g=original	!	!	!
=41	=41	=41	=41	=41	=41	=41	=41	=41	=41	=41	=41	=41
!	!	!	!	!	!LO:N:vis=00	!	!	!	!	!	!	!
4A/	.	4r	4r	4r	0.r	.	4.A\	Do-	4.a\	Do	4.cc#\	Do-
4AA/	.	8r	8r	8r	.	.	.	.	.	.	.	.
!	!	!	!	!LO:LB:g=original	!	!	!	!	!	!	!	!
.	.	8A\L	8A/L	8A/L	.	.	8A\	-mi-	8a\	mi-	8cc#\	-mi-
4A/	.	8c#\	8c#/	8c#/	.	.	4A\	-ni	4a\	-ni	4cc#\	-ni,
.	.	8e\J	8e/J	8e/J	.	.	.	.	.	.	.	.
=42	=42	=42	=42	=42	=42	=42	=42	=42	=42	=42	=42	=42
4d\	.	4a\	4a/	4a/	.	.	4d\	be-	(>4f#\	.	4a\	sit
4B\	X 6/	4r	4r	4r	.	.	4B\	.	4d\)	be-	4g#X\	be-
4A\	.	4r	4r	4r	.	.	4A\	-ne-	4e\	-ne-	4a\	-ne-
=43	=43	=43	=43	=43	=43	=43	=43	=43	=43	=43	=43	=43
2e\	6 4	4r	4r	4r	.	.	2e\	-dic-	2g#X\	-dic-	2b\	-dic-
.	5 3	8r	8r	8r	.	.	.	.	.	.	.	.
!	!	!LO:LB:g=original	!	!	!	!	!	!	!	!	!	!
.	.	8e\L	8e/L	8e/L	.	.	.	.	.	.	.	.
4e\	.	8g#X\	8g#X/	8g#X/	.	.	4e\	-tum	4g#\	-tum	4b\	-tum
.	.	8b\J	8b/J	8b/J	.	.	.	.	.	.	.	.
!LO:LB:g=original	!	!	!	!	!	!	!	!	!	!	!	!
=44	=44	=44	=44	=44	=44	=44	=44	=44	=44	=44	=44	=44
8c#\L	X 6	4ee\	4ee\	4ee\	.	.	8c#\	ex	8e\	ex	8a\	ex
8c#\J	.	.	.	.	.	.	8c#\	hoc	8e\	hoc	8a\	hoc
4d\	.	4r	4r	4r	.	.	4d\	nunc	4f#\	nunc	4b\	nu(n)c
4c#\	.	4r	4r	4r	.	.	4c#\	.	4e\	et	4a\	et
=45	=45	=45	=45	=45	=45	=45	=45	=45	=45	=45	=45	=45
!	!	!	!	!	!LO:N:vis=0	!	!	!	!	!	!	!
4d\	.	4r	4r	4r	1.r	.	4d\	et	4f#\	us-	4b\	us-
!	!	!	!LO:LB:g=original	!	!	!	!	!	!	!	!	!
4c#\	.	8r	8r	8r	.	.	4c#\	us(que)	4e\	(que)	4a\	-q(ue)
.	.	8c#\L	8a\L	8a\L	.	.	.	.	.	.	.	.
!	!	!	!	!	!	!	!	!	!	!	!LO:LB:g=original	!
4r	.	8e\	8cc#\	8cc#\	.	.	4r	.	4r	.	4r	.
.	.	8c#\J	8ee\J	8ee\J	.	.	.	.	.	.	.	.
=46	=46	=46	=46	=46	=46	=46	=46	=46	=46	=46	=46	=46
4d\	.	4a\	4ff#\	4ff#\	.	.	4d\	in	4f#\	in	4a\	in
4e\	X 4	4e\	4r	4r	.	.	4e\	sae-	4.B/	Sae-	4.g#X/	Sae-
4E/	X #	4E/	4r	4r	.	.	4E/	-cu-	.	.	.	.
.	.	.	.	.	.	.	.	.	8B/	-cu-	8g#/	-cu-
=47	=47	=47	=47	=47	=47	=47	=47	=47	=47	=47	=47	=47
4A/	.	4A/	8r	8r	2.r	.	4A/	-lum	2.c#/	-lum	4a\	-lum,
.	.	.	8cc#\L	8cc#\L	.	.	.	.	.	.	.	.
4r	.	4r	8ee\	8ee\	.	.	4r	.	.	.	4r	.
.	.	.	8aa\J	8aa\J	.	.	.	.	.	.	.	.
4r	.	4r	8.gg#Xt\L	8gg#X\L	.	.	4r	.	.	.	4r	.
.	.	.	.	16ff#\L	.	.	.	.	.	.	.	.
.	.	.	(>32ff#\LL	16gg#\JJ	.	.	.	.	.	.	.	.
.	.	.	32gg#\JJJ)	.	.	.	.	.	.	.	.	.
*clefF4	*	*	*	*	*	*	*	*	*	*	*	*
=48	=48	=48	=48	=48	=48	=48	=48	=48	=48	=48	=48	=48
4AA/	.	4A/	4aa\	4aa\	4AA/	A	4A/	A	4e\	A	4cc#\	a
4C#/	.	4c#/	4r	4r	4C#/	so-	4A/	so-	4e\	So-	4cc#\	So-
4E\	X #	4e/	4r	4r	4E/	-lis	4G#X/	-lis	4e\	-lis	4b\	-lis
!	!	!	!	!	!LO:LB:g=original	!	!	!	!	!	!	!
=49	=49	=49	=49	=49	=49	=49	=49	=49	=49	=49	=49	=49
4A\	.	4a\	8r	8r	4AA/	or-	4A/	or-	4e\	or-	4cc#\	or-
.	.	.	8cc#\L	8ee\L	.	.	.	.	.	.	.	.
4A\	.	4A/	8ee\	8aa\	4AA/	-tu	4A/	-tu	4e\	-tu	4cc#\	-tu
.	.	.	8aa\J	8ccc#\J	.	.	.	.	.	.	.	.
4r	.	4r	8gg#X\L	8bb\L	4r	.	4r	.	4r	.	4r	.
.	.	.	16ff#\L	16aa\L	.	.	.	.	.	.	.	.
.	.	.	16gg#\JJ	16bb\JJ	.	.	.	.	.	.	.	.
!	!	!	!	!	!	!	!	!	!LO:LB:g=original	!	!	!
=50	=50	=50	=50	=50	=50	=50	=50	=50	=50	=50	=50	=50
8r	.	8a\L	4aa\	4ccc#\	8A\	us-	8A\	us-	8e\	us-	8cc#\	us-
8A\L	.	8a\	.	.	8A\	-(que)	8A\	-(que)	8e\	-(que)	8cc#\	-q(ue)
*	*	*	*	*	*	*	*	*	*	*	*	*ij
\8A\	.	8a\	4r	4r	8A\	us-	8A\	us-	8e\	us-	8cc#\	us-
!	!	!	!	!	!	!	!LO:LB:g=original	!	!	!	!	!
8G\	.	8g\	.	.	8G\	-(que)	16B\LL	-que	16f#\LL	-(que)	8b\	-q(ue)
*	*	*	*	*	*	*	*	*	*	*	*	*Xij
.	.	.	.	.	.	.	16c#\JJ	.	16g\JJ	.	.	.
8F#\	.	8f#\	4r	4r	8F#\	ad	8d\	ad	8a\	ad	8a\	ad
8E\J	.	8e\J	.	.	8E\	oc-	8G/	oc-	8g\	oc-	8cc#\	oc-
=51	=51	=51	=51	=51	=51	=51	=51	=51	=51	=51	=51	=51
4D\	.	4d\	8ff#\L	8aa\L|	4D\	-ca-	4A/	-ca-	4f#\	-ca-	4dd\	-ca-
.	.	.	8ff#\	8aa\|	.	.	.	.	.	.	.	.
4D\	.	4d\	8ff#\	8aa\|	4D\	-sum	4A/	-sum	4f#\	-sum	4dd\	-sum
.	.	.	8ee\	8gg\	.	.	.	.	.	.	.	.
4r	.	4r	8dd\	8ff#\	4r	.	4r	.	4r	.	4r	.
.	.	.	8cc#\J	8ee\J	.	.	.	.	.	.	.	.
!	!	!	!	!	!	!	!	!	!	!	!LO:SIC:custos a:v	!
!	!	!	!	!	!	!	!	!	!	!	!LO:LB:g=original	!
!	!	!	!	!LO:LB:g=original	!	!	!	!	!	!	!	!
=52	=52	=52	=52	=52	=52	=52	=52	=52	=52	=52	=52	=52
8d\L	.	8dd\L	4dd\	4dd\|	8d\	us-	8A/	us-	8f#\	us-	8a\	us-
8d\	.	8dd\	.	.	8d\	-que	8A/	-que	8f#\	-(que)	8a\	-q(ue)
*	*	*	*	*	*	*	*	*	*	*ij	*	*ij
8d\	.	8dd\	4d/	4dd\|	8d\	us-	8d\	us-	8f#\	us-	8a\	us-
!	!	!LO:SIC:s=8ccn	!	!	!	!	!	!	!	!	!	!
8cn\	.	8cc-X\	.	.	8cn\	-que	8A\	-que	8e\	-(que)	16b\LL	-q(ue)
*	*	*	*	*	*	*	*	*	*	*Xij	*	*Xij
.	.	.	.	.	.	.	.	.	.	.	16ccn\JJ	.
8B\	.	8b\	4r	4r	8B\	ad	8B\	ad	8d\	ad	8dd\	ad
8A\J	.	8a\J	.	.	8A\	oc-	8cn\	oc-	8a\	oc-	8ccn\	oc-
!LO:LB:g=original	!	!	!	!	!	!	!	!	!	!	!	!
=53	=53	=53	=53	=53	=53	=53	=53	=53	=53	=53	=53	=53
4G\	.	4g\	8gg\L	8bb\L|	4G\	-ca-	4d\	-ca-	4d\	-ca-	4b\	-ca-
.	.	.	8gg\	8bb\|	.	.	.	.	.	.	.	.
4G\	.	4g\	8gg\	8bb\	4G\	-sum	4d\	-sum	4g\	-sum	4b\	-ſum
.	.	.	8gg\	8bb\	.	.	.	.	.	.	.	.
4E\	.	4e\	8gg\	8bb\	4E\	lau-	4e\	lau-	4g\	lau-	4b\	lau-
.	.	.	8gg\J	8bb\J	.	.	.	.	.	.	.	.
=54	=54	=54	=54	=54	=54	=54	=54	=54	=54	=54	=54	=54
4F#\	X #	4f#\	4ff#\	4aa#X\	4F#\	-da-	4c#\	-da-	4f#\	-da-	4a#X\	-da-
4F#\	.	4f#\	4ff#\	4ff#\	8F#\	-bi-	8c#\	-bi-	8f#\	-bi-	8a#\	-bi-
.	.	.	.	.	8F#\	-le	8c#\	-le	8f#\	-le	8a#\	-le
8B\L	.	8b\L	4r	4r	8B\	no-	8B\	no-	8f#\	no-	8dd\	No-
8A#X\J	.	8a#X\J	.	.	8A#X\	-men	8B\	-men	8f#\	-men	8cc#\	-men
!	!	!LO:LB:g=original	!LO:LB:g=original	!	!	!	!	!	!	!	!	!
=55	=55	=55	=55	=55	=55	=55	=55	=55	=55	=55	=55	=55
*	*	*	*	*	*	*	*	*	*	*	*	*ij
8B\L	.	8b\L	2.r	2.r	8B\	no-	8B\	no-	8f#\	no-	8dd\	No-
8E\J	.	8e\J	.	.	8E\	-men	8B\	-men	8g\	-men	8ee\	-men
*	*	*	*	*	*	*	*	*	*	*	*	*Xij
!	!	!	!	!	!	!	!	!	!LO:LB:g=original	!	!	!
4F#\	X 4	4f#\	.	.	4.F#\	Do-	4.A#X\	Do-	4.f#\	Do-	4.cc#\	Do-
4FF#/	X #	4F#/	.	.	.	.	.	.	.	.	.	.
.	.	.	.	.	8F#\	-mi-	8A#\	-mi-	8f#\	-mi-	8cc#\	-mi-
=56	=56	=56	=56	=56	=56	=56	=56	=56	=56	=56	=56	=56
4BB/	.	4f#\	4dd\	8r	4BB/	-ni	2B\	-ni	4f#\	-ni	2b\	-ni
.	.	.	.	8b\L	.	.	.	.	.	.	.	.
!	!	!	!	!	!LO:LB:g=original	!	!	!	!	!	!	!
4r	.	4r	8r	8ff#\	4r	.	.	.	4r	.	.	.
.	.	.	8dd\	8bb\J	.	.	.	.	.	.	.	.
4F#\	X #	4f#\	8cc#\L	8aa#X\L	4r	.	4r	.	4r	.	4r	.
.	.	.	16b\L	16gg#X\L	.	.	.	.	.	.	.	.
.	.	.	16cc#\JJ	16aa#\JJ	.	.	.	.	.	.	.	.
!	!	!	!	!	!	!	!	!	!	!	!LO:LB:g=original	!
=57	=57	=57	=57	=57	=57	=57	=57	=57	=57	=57	=57	=57
!	!	!	!	!	!	!	!	!	!LO:N:vis=0	!	!LO:N:vis=0	!
!	!	!	!	!	!LO:N:vis=0	!	!LO:N:vis=0	!	!	!	!	!
4BB/	.	4f#\	4dd\	8bb\L	1.r	.	1.r	.	1.r	.	1.r	.
.	.	.	.	8b\	.	.	.	.	.	.	.	.
4r	.	4r	8r	8dd#X\	.	.	.	.	.	.	.	.
.	.	.	8dd#X\	8ff#\J	.	.	.	.	.	.	.	.
4BB/	7 #	4d#X\	16ff#\LL	16aan\LL	.	.	.	.	.	.	.	.
.	.	.	16ee\	16gg\	.	.	.	.	.	.	.	.
.	.	.	16ff#\	16aa\	.	.	.	.	.	.	.	.
.	.	.	16dd#X\JJ	16bb\JJ	.	.	.	.	.	.	.	.
=58	=58	=58	=58	=58	=58	=58	=58	=58	=58	=58	=58	=58
!	!	!	!	!LO:TX:a:t=P:problem:mixed beam	!	!	!	!	!	!	!	!
4E\	.	4B/	4ee\	8gg\L	.	.	.	.	.	.	.	.
.	.	.	.	8e/	.	.	.	.	.	.	.	.
8r	.	4r	8r	8b/	.	.	.	.	.	.	.	.
8A\L	.	.	8gg\	8dd/J	.	.	.	.	.	.	.	.
8A\	.	4c#\	16ee\LL	16gg\LL	.	.	.	.	.	.	.	.
.	.	.	16dd\	16ff#\	.	.	.	.	.	.	.	.
8A\J	.	.	16ee\	16gg\	.	.	.	.	.	.	.	.
.	.	.	16cc#\JJ	16aa\JJ	.	.	.	.	.	.	.	.
=59	=59	=59	=59	=59	=59	=59	=59	=59	=59	=59	=59	=59
4D/	.	4A/	16dd\LL	16ff#\LL	2.r	.	2.r	.	2.r	.	2.r	.
.	.	.	16cc#\	16ee\	.	.	.	.	.	.	.	.
.	.	.	16dd\	16ff#\	.	.	.	.	.	.	.	.
.	.	.	16ee\JJ	16gg\JJ	.	.	.	.	.	.	.	.
!	!	!LO:TX:a:t=P:problem:mixed beam	!	!	!	!	!	!	!	!	!	!
8BB/L	.	8B/L	8dd\L	8ff#\L	.	.	.	.	.	.	.	.
8E/J	.	8e\J	16cc#\L	16ee\L	.	.	.	.	.	.	.	.
.	.	.	16b\JJ	16dd\JJ	.	.	.	.	.	.	.	.
4F#\	X #	4f#\	8.a#X/L	8.cc#t\L	.	.	.	.	.	.	.	.
.	.	.	16b/Jk	16b\Jk	.	.	.	.	.	.	.	.
=60	=60	=60	=60	=60	=60	=60	=60	=60	=60	=60	=60	=60
!LO:TX:a:t=P:problem:mixed beam	!	!	!	!	!	!	!	!	!	!	!	!
8BB/L	.	8f#\L	4b/	4b\	8r	.	8r	.	8r	.	8r	.
!	!	!	!	!	!	!	!LO:LB:g=original	!	!	!	!	!
8B\	.	8b\	.	.	8B\	Ex-	8B\	Ex-	8f#\	Ex-	8dd\	Ex-
!	!	!	!	!LO:LB:g=original	!	!	!	!	!	!	!	!
8B\	.	8b\	4r	4r	8B\	-cel-	8B\	-cel-	8f#\	-cel-	8dd\	-cel-
8F#\	X 6	8f#\	.	.	8F#\	-sus	8A\	-sus	8a\	-sus	8dd\	-sus
8G\	.	8g\	4r	4r	8G\	su-	8B\	su-	8g\	su-	8dd\	Su-
8A\J	.	8a\J	.	.	8A\	-per	8A\	-per	8e\	-per	8cc#\	-per
=61	=61	=61	=61	=61	=61	=61	=61	=61	=61	=61	=61	=61
4D/	.	4dd\	8r	8r	4D\	om-	4A\	om-	4f#\	om-	4dd\	om-
.	.	.	8ff#\L	8aa\L	.	.	.	.	.	.	.	.
4D/	.	4d\	8ff#\	8aa\	4D\	-nes	4A\	-nes	4f#\	-nes	4dd\	-nes
.	.	.	8dd\	8ff#\	.	.	.	.	.	.	.	.
4r	.	4r	8ee\	8gg\	4r	.	4r	.	4r	.	4r	.
.	.	.	8cc#\J	8aa\J	.	.	.	.	.	.	.	.
!LO:LB:g=original	!	!	!	!	!	!	!	!	!	!	!	!
=62	=62	=62	=62	=62	=62	=62	=62	=62	=62	=62	=62	=62
8r	.	8r	4dd\	4dd\	8r	.	8r	.	8r	.	8r	.
*	*	*	*	*	*	*ij	*	*	*	*ij	*	*ij
8d\L	.	8dd\L	.	.	8d\	Ex-	8A\	ex-	8f#\	Ex-	8dd\	Ex-
8d\	.	8dd\	4dd\	4dd\	8d\	-cel-	8A\	-cel-	8f#\	-cel-	8dd\	-cel-
8A\	.	8a\	.	.	8A\	-sus	8c#\	-sus	8f#\	-sus	8dd\	-sus
8B\	.	8b\	4r	4r	8B\	su-	8B\	su-	8f#\	su-	8dd\	Su-
8c#\J	X #	8cc#\J	.	.	8c#\	-per	8G#X/	-per	8e#X\	-per	8cc#\	-per
!	!	!	!LO:LB:g=original	!	!	!	!	!	!	!	!	!
=63	=63	=63	=63	=63	=63	=63	=63	=63	=63	=63	=63	=63
4F#\	.	4f#\	8r	4r	4F#\	om-	4A/	om-	4f#\	om-	4cc#\	om-
.	.	.	8r	.	.	.	.	.	.	.	.	.
4F#\	.	4f#\	4cc#\	4r	4F#\	-nes	4A/	-nes	4f#\	-nes	4cc#,\	-nes
*	*	*	*	*	*	*Xij	*	*	*	*Xij	*	*Xij
8F#\L	.	8f#\L	4cc#\	8aa#X\L	8F#\	su-	8G#X/	su-	8f#\	su-	8cc#\	Su-
.	X #	.	.	.	.	.	.	.	.	.	.	.
8F#\J	.	8f#\J	.	8aa#\J	8F#\	-per	8B\	-per	8f#\	-per	8cc#\	-per
!	!	!	!	!	!	!	!	!	!LO:LB:g=original	!	!LO:LB:g=original	!
=64	=64	=64	=64	=64	=64	=64	=64	=64	=64	=64	=64	=64
8B\L	.	8b\L	8dd\L	8ff#\L	8B\	om-	8B\	om-	8f#\	om-	8dd\	om-
8B\	.	8b\	8dd\	8ff#\J	8B\	-nes	8B\	-nes	8f#\	-nes	8dd\	-nes
*	*	*	*	*	*	*ij	*	*	*	*	*	*ij
8B\	.	8b\	8dd\	8ff#\L	8B\	om-	8B\	om-	8f#\	gen-	8dd\	om-
8B\	X 6/	8b\	8dd\J	16ff#\L	8B\	-nes	8B\	-nes	8f#\	-tes	8dd\	-nes
*	*	*	*	*	*	*Xij	*	*	*	*	*	*Xij
.	.	.	.	16gg\JJ	.	.	.	.	.	.	.	.
8A\	.	8a\	8cc#\L	8aa\L	8A\	gen-	8c#\	gen-	8a\	gen-	8a\	gen-
8G\J	.	8g\J	16dd\L	16bb\L	8G\	-tes	8B\	-tes	8e\	-tes	16b\LL	-tes
.	.	.	16ee\JJ	16ccc#\JJ	.	.	.	.	.	.	16cc#\JJ	.
!	!	!LO:LB:g=original	!	!	!	!	!	!	!	!	!	!
=65	=65	=65	=65	=65	=65	=65	=65	=65	=65	=65	=65	=65
8.F#\L	X 6	8f#\L	8.ff#\L	4ccc#\	8.F#\	Do-	8.A/	Do-	8.f#\	Do-	8.dd\	Do-
.	.	8e\	.	.	.	.	.	.	.	.	.	.
16E\Jk	.	.	16gg\Jk	.	16E\	-mi-	16G/	-mi-	16g\	-mi-	16ee\	-mi-
4D\	.	8d\	16aa\LL	4ff#\	4D\	-nus	4F#/	-nus	4a\	-nus	4ff#\	-n(us)
.	.	.	16ff#\	.	.	.	.	.	.	.	.	.
.	.	8a\J	16ee\	.	.	.	.	.	.	.	.	.
.	.	.	16dd\JJ	.	.	.	.	.	.	.	.	.
!	!	!	!	!	!LO:LB:g=original	!	!	!	!	!	!	!
8A\L	.	4a\	8cc#\L	8ee\L	8A\	su-	8c#\	su-	8a\	su-	8ee\	Su-
8A\J	.	.	8cc#\J	8dd\J	8A\	-per	8c#\	-per	8a\	-per	8ee\	-per
!	!	!	!	!	!	!	!LO:LB:g=original	!	!	!	!	!
=66	=66	=66	=66	=66	=66	=66	=66	=66	=66	=66	=66	=66
8d\L	.	8dd\L	8a\L	8ff#\L	8d\	om-	8d\	om-	8a\	om-	8ff#\	om-
8d\	.	8dd\	8a\	8ff#\	8d\	-nes	8d\	-nes	8a\	-nes	8ff#\	-nes
*	*	*	*	*	*	*	*	*	*	*	*	*ij
8d\	.	8dd\	8dd\	8ff#\	8d\	om-	8A\	gen-	8a\	gen-	8ff#\	om-
8d\	.	8dd\	8dd\	8ff#\	8d\	-nes	8A\	-tes	8a\	-tes	8ff#\	-nes
*	*	*	*	*	*	*	*	*ij	*	*	*	*Xij
!	!	!	!	!LO:N:vis=16	!	!	!	!	!	!	!	!
8c#\	.	8cc#\	8ee\	8gg#X\	8c#\	gen-	8c#\	gen-	8a#X\	gen-	8ee\	gen-
!	!	!	!	!LO:N:vis=16	!	!	!	!	!	!	!	!
8B\J	.	8b\J	8ff#\J	8bb\J	8B\	-tes	8d\	-tes	8b\	-tes	8dd\	-tes
*	*	*	*	*	*	*	*	*Xij	*	*	*	*
=67	=67	=67	=67	=67	=67	=67	=67	=67	=67	=67	=67	=67
2A#X\	X 6	4a#X\	8ff#\L	8ccc#\L	4.A#X\	Do-	4.A#X/	Do-	4.f#\	Do-	4.cc#\	Do-
.	.	.	16ff#\L	16aa#X\L	.	.	.	.	.	.	.	.
.	.	.	16gg#X\JJ	16bb\JJ	.	.	.	.	.	.	.	.
!	!	!	!LO:SIC:s=4aa#	!	!	!	!	!	!	!	!	!
.	.	4r	8aa\L	8ccc#\L	.	.	.	.	.	.	.	.
.	.	.	8ff#\J	8aa#X\J	8A#\	-mi-	8G/	-mi-	8f#\	-mi-	8cc#\	-mi-
4A#\	.	8r	4a#X/	4ff#\	4A#\	-nus	4F#/	-nus	4f#\	-nus	4cc#\	-n(us)
.	.	8f#\	.	.	.	.	.	.	.	.	.	.
=68	=68	=68	=68	=68	=68	=68	=68	=68	=68	=68	=68	=68
4B\	.	8d\L	4r	8r	4B\	&	4f#\	&	4f#\	&	4dd\	et
.	.	8f#\J	.	8dd\L	.	.	.	.	.	.	.	.
4C#/	X #	4c#\	8r	8cc#\	4c#\	su-	4c#\	su-	4e#X\	su-	4cc#\	Su-
.	.	.	8cc#\	8ee#X\J	.	.	.	.	.	.	.	.
4D/	X 6	4d\	8a\L	8ff#\L	4d\	-per	4f#\	-per	4f#\	-per	4a\	-per
.	.	.	8dd\J	16ee#\L	.	.	.	.	.	.	.	.
.	.	.	.	16ff#\JJ	.	.	.	.	.	.	.	.
!	!	!	!	!	!	!	!	!	!LO:LB:g=original	!	!LO:LB:g=original	!
!	!	!	!	!LO:LB:g=original	!	!	!	!	!	!	!	!
=69	=69	=69	=69	=69	=69	=69	=69	=69	=69	=69	=69	=69
4C#/	X #	4d\	4e#X/	4.gg#X\	4c#\	coe-	4e#X\	coe-	4g#X\	coe-	4cc#\	coe-
4E#X\	X 6	4e#X\	4cc#\	.	4E#X\	-los	4e#\	-los	4g#\	-los	4cc#\	-los
.	.	.	.	8gg#\	.	.	.	.	.	.	.	.
!	!	!	!LO:SIC:s=4ff#	!	!	!	!	!	!	!	!	!
4F#\	.	4f#\	[4ee#X\	4aa\	4F#\	glo-	4c#\	glo-	4a\	glo-	4cc#\	glo-
!LO:LB:g=original	!	!	!	!	!	!	!	!	!	!	!	!
=70	=70	=70	=70	=70	=70	=70	=70	=70	=70	=70	=70	=70
!	!	!	!LO:SIC:s=8ff#	!	!	!	!	!	!	!	!	!
4BB/	.	4B/	8ee#\L]	8aa\L	8BB/	-ri-	8B\	-ri-	8f#\	-ri-	8dd\	-ri-
.	.	.	16ff#\L	8bb\J	8BB/	-a	8B\	-a	8f#\	-a	8dd\	-a
.	.	.	16gg#X\JJ	.	.	.	.	.	.	.	.	.
*	*reverse	*	*	*	*	*	*	*	*	*	*	*
!	!	!	!LO:LB:g=original	!	!	!	!	!	!	!	!	!
2C#/	X 4#	4r	4cc#\	4.gg#X\	2C#/	e-	2G#X/	e-	(>4f#\	e-	2cc#\	E-
*	*Xreverse	*	*	*	*	*	*	*	*	*	*	*
.	.	4c#/	4ee#X\	.	.	.	.	.	4e#X\)	.	.	.
.	.	.	.	8ff#\	.	.	.	.	.	.	.	.
=71	=71	=71	=71	=71	=71	=71	=71	=71	=71	=71	=71	=71
!	!	!LO:TX:a:t=P:problem:mixed beam	!	!	!	!	!	!	!	!	!	!
8F#\L	.	8F#/L	4ff#\	4ff#\	4F#\	-jus'	4A/	-jus.	4f#\	-jus	2cc#\	-jus
8F#\	.	8f#\	.	.	.	.	.	.	.	.	.	.
!LO:TX:a:i:t=ſ.	!	!	!	!	!	!	!	!	!	!	!	!
8F#\	.	8a\	8r	8r	4r	.	4r	.	4r	.	.	.
8G#X\	.	8b\	8cc#\L	8cc#\L	.	.	.	.	.	.	.	.
8A\	.	8cc#\	8cc#\	8cc#\	4r	.	4r	.	4r	.	4r	.
8F#\J	.	8a\J	8cc#\J	8cc#\J	.	.	.	.	.	.	.	.
=72	=72	=72	=72	=72	=72	=72	=72	=72	=72	=72	=72	=72
!	!	!LO:TX:a:t=P:problem:mixed beam	!	!	!	!	!	!	!	!	!	!
!	!	!	!	!	!LO:N:vis=00	!	!LO:N:vis=00	!	!LO:N:vis=00	!	!LO:N:vis=00	!
8B\L	X 9	8f#\L	8cc#\L	16dd\LL	0.r	.	0.r	.	0.r	.	0.r	.
.	.	.	.	16ee\	.	.	.	.	.	.	.	.
8A\	.	8F#/	8cc#\	16dd\	.	.	.	.	.	.	.	.
.	.	.	.	16ee\JJ	.	.	.	.	.	.	.	.
8B\	X 8	8B/	8b\	16dd\LL	.	.	.	.	.	.	.	.
!	!	!	!	!	!	!	!	!	!	!	!LO:TX:b:t=7.	!
.	.	.	.	16ee\	.	.	.	.	.	.	.	.
8c#\	.	8c#/	8b\	16dd\	.	.	.	.	.	.	.	.
.	.	.	.	16ee\JJ	.	.	.	.	.	.	.	.
8d\	.	8d/	8b\	16dd\LL	.	.	.	.	.	.	.	.
.	.	.	.	16ee\	.	.	.	.	.	.	.	.
8B\J	.	8B/J	8b\J	16dd\	.	.	.	.	.	.	.	.
.	.	.	.	16ee\JJ	.	.	.	.	.	.	.	.
=73	=73	=73	=73	=73	=73	=73	=73	=73	=73	=73	=73	=73
8F#\L	X 4	8f#\L	8b/L	16cc#\LL	.	.	.	.	.	.	.	.
.	.	.	.	16dd\	.	.	.	.	.	.	.	.
8E#X\	.	8e#X\J	8b/	16cc#\	.	.	.	.	.	.	.	.
.	.	.	.	16dd\JJ	.	.	.	.	.	.	.	.
!	!	!LO:LB:g=original	!	!	!	!	!	!	!	!	!	!
!	!	!LO:SIC:s=8f#	!	!	!	!	!	!	!	!	!	!
!	!	!LO:SIC:custos f:v	!	!	!	!	!	!	!	!	!	!
8F#\	X 3	8e#\L	8a/	16cc#\LL	.	.	.	.	.	.	.	.
.	.	.	.	16dd\	.	.	.	.	.	.	.	.
8G#X\	.	8g#X\	8a/	16cc#\	.	.	.	.	.	.	.	.
.	.	.	.	16dd\JJ	.	.	.	.	.	.	.	.
8A\	.	8a\	8a/	16cc#\LL	.	.	.	.	.	.	.	.
.	.	.	.	16dd\	.	.	.	.	.	.	.	.
8F#\J	.	8f#\J	8a/J	16cc#\	.	.	.	.	.	.	.	.
.	.	.	.	16dd\JJ	.	.	.	.	.	.	.	.
=74	=74	=74	=74	=74	=74	=74	=74	=74	=74	=74	=74	=74
!	!	!LO:TX:a:t=P:problem:mixed beam	!	!	!	!	!	!	!	!	!	!
8G#X\L	X 9	8g#X\L	8a/L	16b\LL	.	.	.	.	.	.	.	.
.	.	.	.	16cc#\	.	.	.	.	.	.	.	.
8F#\	.	8f#\	8a/	16b\	.	.	.	.	.	.	.	.
.	.	.	.	16cc#\JJ	.	.	.	.	.	.	.	.
8G#\	X 8	8g#\	8g#X/	16b\LL	.	.	.	.	.	.	.	.
.	.	.	.	16cc#\	.	.	.	.	.	.	.	.
!	!	!LO:SIC:s=8A	!	!	!	!	!	!	!	!	!	!
8A\	.	8G/	8g#/	16b\	.	.	.	.	.	.	.	.
.	.	.	.	16cc#\JJ	.	.	.	.	.	.	.	.
8B\	.	8B/	8g#/	16b\LL	.	.	.	.	.	.	.	.
.	.	.	.	16cc#\	.	.	.	.	.	.	.	.
8c#\J	.	8c#/J	8g#/J	16b\	.	.	.	.	.	.	.	.
.	.	.	.	16cc#\JJ	.	.	.	.	.	.	.	.
=75	=75	=75	=75	=75	=75	=75	=75	=75	=75	=75	=75	=75
!	!	!	!LO:SIC:s=8g#	!	!	!	!	!	!	!	!	!
8F#\L	X 9	8f#\L	8g/L	16a/LL	.	.	.	.	.	.	.	.
.	.	.	.	16b/	.	.	.	.	.	.	.	.
!	!	!	!LO:SIC:s=8g#	!	!	!	!	!	!	!	!	!
8E#X\	.	8e#X\	8g/	16a/	.	.	.	.	.	.	.	.
.	.	.	.	16b/JJ	.	.	.	.	.	.	.	.
!	!	!	!	!LO:LB:g=original	!	!	!	!	!	!	!	!
8F#\	X 8	8f#\	8f#/	16a/LL	.	.	.	.	.	.	.	.
.	.	.	.	16b/	.	.	.	.	.	.	.	.
!	!	!LO:SIC:s=8g#	!	!	!	!	!	!	!	!	!	!
8G#X\	.	8g\	8f#/	16a/	.	.	.	.	.	.	.	.
.	.	.	.	16b/JJ	.	.	.	.	.	.	.	.
8A\	.	8a\	8f#/	16a/LL	.	.	.	.	.	.	.	.
.	.	.	.	16b/	.	.	.	.	.	.	.	.
8F#\J	.	8f#\J	8f#/J	16a/	.	.	.	.	.	.	.	.
.	.	.	.	16b/JJ	.	.	.	.	.	.	.	.
=76	=76	=76	=76	=76	=76	=76	=76	=76	=76	=76	=76	=76
!	!	!	!	!	!LO:N:vis=0	!	!LO:N:vis=0	!	!LO:N:vis=0	!	!LO:N:vis=0	!
4C#/	X #	4c#\	4e#X/	8g#X/L	1.r	.	1.r	.	1.r	.	1.r	.
.	.	.	.	8cc#/J	.	.	.	.	.	.	.	.
8r	.	8r	8r	8ee#X\L	.	.	.	.	.	.	.	.
8C#/	.	8c#/	8ee#X\	8gg#X\J	.	.	.	.	.	.	.	.
4C#/	6 4	4c#/	16ff#\LL	16aa\LL	.	.	.	.	.	.	.	.
.	.	.	16ee#\	16gg#X\	.	.	.	.	.	.	.	.
.	.	.	16ff#\	16aa\	.	.	.	.	.	.	.	.
.	.	.	16gg#X\JJ	16bb\JJ	.	.	.	.	.	.	.	.
=77	=77	=77	=77	=77	=77	=77	=77	=77	=77	=77	=77	=77
4C#/	5 #	4c#\	4ee#X\	8gg#X\L	.	.	.	.	.	.	.	.
.	.	.	.	8cc#\	.	.	.	.	.	.	.	.
4r	.	4r	8r	8ee#X\	.	.	.	.	.	.	.	.
.	.	.	8ee#\	8gg#\J	.	.	.	.	.	.	.	.
!LO:LB:g=original	!	!	!LO:LB:g=original	!	!	!	!	!	!	!	!	!
4C#X/	7 #	4e#X\	16gg#X\LL	16bb\LL	.	.	.	.	.	.	.	.
.	.	.	16ff#\	16aa\	.	.	.	.	.	.	.	.
.	.	.	16gg#\	16bb\	.	.	.	.	.	.	.	.
.	.	.	16ee#X\JJ	16gg#X\JJ	.	.	.	.	.	.	.	.
=78	=78	=78	=78	=78	=78	=78	=78	=78	=78	=78	=78	=78
8F#\L	.	8f#\L	8cc#\L	8aa\L	2.r	.	2.r	.	2.r	.	2.r	.
8C#\	X #	8c#\	8cc#\	8ee#X\	.	.	.	.	.	.	.	.
8D\	.	8d\	8a\	8ff#\	.	.	.	.	.	.	.	.
8BB\J	X 6/	8B\J	8b\J	8gg#X\J	.	.	.	.	.	.	.	.
4C#/	X #	8.c#\L	8.g#Xt/L	8.ee#X\L	.	.	.	.	.	.	.	.
.	.	16c#\Jk	16a/Jk	16ee#\Jk	.	.	.	.	.	.	.	.
=79	=79	=79	=79	=79	=79	=79	=79	=79	=79	=79	=79	=79
!LO:TX:a:i:t=T.	!	!	!	!	!	!	!	!	!	!	!	!
4F#\	.	4F#/	4a/	4ff#\	4F#\	Quis	4A/	Quis	4f#\	Quis	4cc#\	Quis
4A\	.	4A/	4a/	4ff#\	4A\	si-	4A/	si-	4f#\	Si-	4cc#\	si-
4c#\	X #	4c#/	4g#X/	4ee#X\	4c#\	-cut	4G#X/	-cut	4e#X\	-cut	4cc#\	-cut
!	!	!	!	!	!LO:LB:g=original	!	!	!	!	!	!	!
=80	=80	=80	=80	=80	=80	=80	=80	=80	=80	=80	=80	=80
4F#\	.	4f#\	4a/	4ff#\	8.F#\	Do-	8.A/	Do-	8.f#\	Do-	8.cc#\	D(o-
.	.	.	.	.	16F#\	-mi-	16A/	-mi-	16f#\	-mi-	16cc#\	-mi-
4F#\	.	4F#/	4a/	4ff#\	4F#\	-nus'	4A/	-nus	4f#\	-nus	4cc#\	-nus)
4r	.	4r	4r	4r	4r	.	4r	.	4r	.	4r	.
!	!	!LO:LB:g=original	!	!	!	!	!LO:LB:g=original	!	!	!	!	!
=81	=81	=81	=81	=81	=81	=81	=81	=81	=81	=81	=81	=81
*	*	*	*	*	*	*ij	*	*	*	*ij	*	*ij
4A\	.	4A/	4cc#\	4ee\	4A\	Quis	4c#\	quis	4e\	Quis	4cc#\	Quis
4C#/	X 6	4c#\	4cc#\	4ee\	4C#/	si-	4e\	si-	4a\	Si-	4cc#\	si-
4E\	X #	4e\	4b\	4dd\	4E\	-cut	4e\	-cut	4g#X\	-cut	4b\	-cut
=82	=82	=82	=82	=82	=82	=82	=82	=82	=82	=82	=82	=82
4AA/	.	4a\	4cc#\|	4cc#\	8.AA/	Do-	8.e\	Do-	8.a\	Do-	8.cc#\	D(o-
!	!	!	!	!	!	!	!	!	!	!	!LO:LB:g=original	!
.	.	.	.	.	16AA/	-mi-	16e\	-mi-	16a\	-mi-	16cc#\	-mi-
4AA/	.	4A/	4cc#\|	4ee\	4AA/	-nus'	4e\	-nus	4a\	-nus	4cc#,\	-nus)
*	*	*	*	*	*	*Xij	*	*	*	*Xij	*	*Xij
!	!	!	!	!	!	!	!	!	!LO:LB:g=original	!	!	!
8A\L	.	8a\L	8cc#\L|	8ee\L	8A\	De-	8c#\	si-	8e\	De-	8cc#\	si-
8A\J	.	8a\J	8cc#\J|	8ee\J	8A\	-us	8c#\	-cut	8e\	-us	8cc#\	-cut
!	!	!	!	!LO:PB:g=original	!	!	!	!	!	!	!	!
=83	=83	=83	=83	=83	=83	=83	=83	=83	=83	=83	=83	=83
4G#X\	X 6	4.g#X\	[>4b\	4ee\	4G#X\	Do-	4B\	Do-	4g#X\	Do-	4ee\	D(o-
8G#\L	.	.	8b\L]	8ee\L	8G#\	-mi-	8B\	-mi-	8g#\	-mi-	8ee\	-mi-
8G#\	.	8g#\L	8b\	8ee\	8G#\	-nus	8B\	-nus	8g#\	-nus	8ee\	-nus)
8A\	.	8a\	8cc#\	8ee\	8A\	De-	8c#\	De-	8e\	De-	8cc#\	De-
8A\J	.	8a\J	8cc#\J	8ee\J	8A\	-us	8c#\	-us	8e\	-us	8cc#\	-us
=84	=84	=84	=84	=84	=84	=84	=84	=84	=84	=84	=84	=84
4E\	X #	8e\L	4b\	4gg#X\	4E\	nos-	4e\	nos-	4g#X\	nos-	4b\	nos-
.	.	8ee\	.	.	.	.	.	.	.	.	.	.
4E\	.	8b\	4b\	4gg#\	4E\	-ter,	4e\	-ter	4g#\	-ter	4b\	-ter
.	.	8g#X\	.	.	.	.	.	.	.	.	.	.
8G#X\L	.	8d\	8b\L	8bb\L	8G#X\	qui	8e\	qui	8g#\	qui	8b\	qui
8E\J	.	8b\J	8dd\J	8gg#\J	8E\	in	8e\	in	8g#\	in	8b\	in
=85	=85	=85	=85	=85	=85	=85	=85	=85	=85	=85	=85	=85
8A\L	.	8a\L	8ee\L	8ee\L	8A\	al-	8c#\	al-	8e\	al-	8cc#\	al-
8G#X\J	X 6	8g#X\J	8ee\J	8gg#X\	8G#X\	-tis	8B\	-tis	8g#X\	-tis	8ee\	-tis
2F#\	X 7	4.f#T\	4.ff#\	8aa\	4.F#\	ha-	4.B\	ha-	4.a\	ha-	4ee\	ha-
.	X 6/	.	.	8cc#\	.	.	.	.	.	.	.	.
.	.	.	.	8dd#X\	.	.	.	.	.	.	4dd#X\	-bi-
.	.	8g#\	8ff#\	8aa\J	8F#\	-bi-	8A\	-bi-	8a\	-bi-	.	.
!LO:LB:g=original	!	!	!	!	!	!	!	!	!	!	!	!
=86	=86	=86	=86	=86	=86	=86	=86	=86	=86	=86	=86	=86
4E\	X #	4e\	4b\	4gg#X\	4E\	-tat	4B\	-tat	4g#X\	-tat	4ee\	-tat
4C#/	X 6	8r	4cc#\	4aa\	4C#/	&	4c#\	&	4a\	&	4ee\	et
.	.	8e\L	.	.	.	.	.	.	.	.	.	.
4C#/	.	8c#\	4ee\	4aa\	4C#/	hu-	4c#\	hu-	4a\	hu-	4ee\	hu-
.	.	8B\J	.	.	.	.	.	.	.	.	.	.
!	!	!	!	!	!	!	!	!	!	!	!LO:SIC:custos dd:v	!
!	!	!	!	!	!	!	!	!	!	!	!LO:LB:g=original	!
!	!	!	!LO:PB:g=original	!	!LO:LB:g=original	!	!	!	!	!	!	!
=87	=87	=87	=87||	=87	=87	=87	=87	=87	=87	=87	=87	=87
8D\L	.	8d\L	2dd\	8ff#\L	8D\L	-mi-	4A/	-mi-	4.a\	-mi-	4.dd\	-mi-
8C#\	.	8c#\	.	8ee\	8C#\J	.	.	.	.	.	.	.
8D\	.	8d\	.	8ff#\	8D\L	-li-	8A/L	-li-	.	.	.	.
8E\	.	8e\	.	8gg\	8E\J	.	8G#X/J	.	8a\	-li-	8dd\	-li-
8F#\	.	8f#\	4dd\	8aa\	8F#\L	-a	8A/L	-a	4a\	-a	4dd\	-a
8G#X\J	.	8g#X\J	.	8bb\J	8G#X\J	.	8B/J	.	.	.	.	.
!	!	!	!	!	!	!	!LO:LB:g=original	!	!	!	!	!
=88	=88	=88	=88	=88	=88	=88	=88	=88	=88	=88	=88	=88
4.A\	.	4.a\	4.cc#\	4.ee\	4.A\	re-	4.c#\	re-	4.e\	re-	4.cc#\	re-
8B\L	.	8b\L	8dd\L	8dd\L	8B\	-spi-	8B\	-spi-	8d\	-spi-	8dd\	-spi-
!	!	!	!	!	!	!	!	!	!LO:LB:g=original	!	!	!
8c#\	.	8cc#\	8ee\	8cc#\	8c#\	-cit	8A\	-cit	8c#\	-cit	8ee\	-cit
8A\J	.	8a\J	8cc#\J	8ee\J	8A\	in	8c#\	in	8e\	in	8cc#\	in
=89	=89	=89	=89	=89	=89	=89	=89	=89	=89	=89	=89	=89
4E\	X #	8r	4b\	4gg#X\	4E\	coe-	4e\	coe-	4g#X\	coe-	4b\	coe-
.	.	8b\L	.	.	.	.	.	.	.	.	.	.
4E\	.	8g#X\	4ee\	4gg#\	4E\	-lo	4e\	-lo	4g#\	-lo	4b\	-lo
.	.	8e\J	.	.	.	.	.	.	.	.	.	.
4F#\	.	8.f#\L	4cc#\	8r	4F#\	&	4c#\	&	4f#\	&	4a\	et
.	.	.	.	8aa\	.	.	.	.	.	.	.	.
.	.	16f#\Jk	.	.	.	.	.	.	.	.	.	.
!	!	!	!	!LO:LB:g=original	!	!	!	!	!	!	!	!
=90	=90	=90	=90	=90	=90	=90	=90	=90	=90	=90	=90	=90
4D\	.	4d\	8r	8ff#\L	4D\	in	4d\	in	4f#\	in	4a\	in
.	.	.	8ff#\	8dd\	.	.	.	.	.	.	.	.
*	*reverse	*	*	*	*	*	*	*	*	*	*	*
!	!	!	!LO:TX:a:t=P:problem:mixed beam	!	!	!	!	!	!	!	!	!
!	!	!LO:LB:g=original	!	!	!	!	!	!	!	!	!	!
2E\	X 4#	4r	8ee\L	8b\	2E\	ter-	2B\	ter-	2e\	ter-	2g#X\	ter-
*	*Xreverse	*	*	*	*	*	*	*	*	*	*	*
.	.	.	8e/J	8bb\	.	.	.	.	.	.	.	.
!	!	!	!LO:SIC:s=8g#	!	!	!	!	!	!	!	!	!
.	.	4B/	8g/L	8ee\	.	.	.	.	.	.	.	.
.	.	.	8b/J	8gg#X\J	.	.	.	.	.	.	.	.
=91	=91	=91	=91	=91	=91	=91	=91	=91	=91	=91	=91	=91
!	!	!	!	!	!	!	!	!	!LO:TX:a:t=e	!	!	!
4AA/	.	4A/	4cc#\	8r	2AA/	-ra	2c#\	-ra	2e\	-ra	2a\	-ra
.	.	.	.	8aa\L	.	.	.	.	.	.	.	.
!LO:TX:a:i:t=ſ.	!	!	!	!	!	!	!	!	!	!	!	!
4r	.	4r	8r	8ee\	.	.	.	.	.	.	.	.
.	.	.	8cc#\	8a\J	.	.	.	.	.	.	.	.
4AA/	6 4	4A/	16dd\LL	16ff#\LL	4r	.	4r	.	4r	.	4r	.
.	.	.	16cc#\	16ee\	.	.	.	.	.	.	.	.
.	.	.	16dd\	16ff#\	.	.	.	.	.	.	.	.
.	.	.	16ee\JJ	16gg\JJ	.	.	.	.	.	.	.	.
=92	=92	=92	=92	=92	=92	=92	=92	=92	=92	=92	=92	=92
!	!	!	!	!	!	!	!	!	!LO:N:vis=0	!	!LO:N:vis=0	!
!	!	!	!	!	!LO:N:vis=0	!	!LO:N:vis=0	!	!	!	!	!
4AA/	5 3	4A/	8cc#\L	8ee\L	1.r	.	1.r	.	1.r	.	1.r	.
.	.	.	8aa\	8aa\	.	.	.	.	.	.	.	.
4r	.	4r	8ee\	8ee\	.	.	.	.	.	.	.	.
!	!	!	!	!	!	!	!	!	!	!	!LO:TX:a:t=2.	!
.	.	.	8cc#\J	8a\J	.	.	.	.	.	.	.	.
4AA/	X 7	4c#/	16ee\LL	16gg\LL	.	.	.	.	.	.	.	.
.	.	.	16dd\	16ff#\	.	.	.	.	.	.	.	.
.	.	.	16ee\	16gg\	.	.	.	.	.	.	.	.
.	.	.	16cc#\JJ	16aa\JJ	.	.	.	.	.	.	.	.
=93	=93	=93	=93	=93	=93	=93	=93	=93	=93	=93	=93	=93
!	!	!	!LO:TX:a:t=P:problem:mixed beam	!	!	!	!	!	!	!	!	!
4D/	.	8A/L	8dd\L	8ff#\L	.	.	.	.	.	.	.	.
.	.	8c#/	8d/J	16ee\L	.	.	.	.	.	.	.	.
.	.	.	.	16dd\JJ	.	.	.	.	.	.	.	.
!	!	!LO:SIC:s=8c#	!	!	!	!	!	!	!	!	!	!
8C#/L	X 6	8d/	8a/L	8ee\L	.	.	.	.	.	.	.	.
!	!	!LO:SIC:s=8d	!	!	!	!	!	!	!	!	!	!
8D/	.	8e/	8a/J	8ff#\J	.	.	.	.	.	.	.	.
8E/	.	8E/	8.g#X/L	8.b/L	.	.	.	.	.	.	.	.
.	X #	.	.	.	.	.	.	.	.	.	.	.
8EE/J	.	8E/J	.	.	.	.	.	.	.	.	.	.
.	.	.	16a/Jk	16a/Jk	.	.	.	.	.	.	.	.
=94	=94	=94	=94	=94	=94	=94	=94	=94	=94	=94	=94	=94
4AA/	.	4A/	8.a\L	4a/	2.r	.	2.r	.	2.r	.	8.a\	Sus-
.	.	.	16b\K	.	.	.	.	.	.	.	16b\	-ci-
4r	.	4r	8cc#\	4r	.	.	.	.	.	.	8cc#\	-tans
.	.	.	8dd\	.	.	.	.	.	.	.	8dd\	à
4r	.	4r	8ee\	4r	.	.	.	.	.	.	8ee\	ter-
.	.	.	8b\J	.	.	.	.	.	.	.	8b\	-ra
!LO:PB:g=original	!	!	!LO:LB:g=original	!	!	!	!	!	!	!	!LO:LB:g=original	!
=95	=95	=95	=95	=95	=95	=95	=95	=95	=95	=95	=95	=95
8.AA/L	.	8.A/L	8.cc#\L	8.ee\L	8.AA/	Sus-	8.c#\	Sus-	8.e\	Sus-	8.cc#\	in-
!	!	!LO:N:vis=8	!	!	!	!	!	!	!	!	!	!
16BB/K	.	16B/K	16b\Jk	16dd\Jk	16BB/	-ci-	16d\	-ci-	16d\	-ci-	16b\	-o-
8C#/	.	8c#/	4a/	8cc#\L	8C#/	-tans	8e\	-tans	8c#\	-tans	4a\	-pem
8D/	.	8d/	.	8cc#\J	8D/	à	8f#\	à	8f#\	à	.	.
8E/	X #	8e/	4g#X/	8.b\L	8E\	ter-	8B\	ter-	8e\	ter-	4r	.
8BB/J	X 6/	8B/J	.	.	8BB/	-ra	8B\	-ra	8d\	-ra	.	.
.	.	.	.	16dd\Jk	.	.	.	.	.	.	.	.
=96	=96	=96	=96	=96	=96	=96	=96	=96	=96	=96	=96	=96
8.C#/L	X 6	8.e\L	8.a\L	8.cc#\L	8.C#/	in-	8.A\	in-	8.e\	in-	4r	.
16BB/Jk	.	16e\Jk	16b\K	16dd\Jk	16BB/	-o-	16B\	-o-	16d\	-o-	.	.
4AA/	.	4e\	8cc#\	8ee\L	4AA/	-pem	4c#\	-pem	4c#\	-pem	4r	.
.	.	.	8a\	16cc#\L	.	.	.	.	.	.	.	.
.	.	.	.	16dd\JJ	.	.	.	.	.	.	.	.
4A\	.	4g\	8b\	8ee\L	4A\	à	4c#\	à	4e\	à	4ee\	à
.	.	.	8cc#\J	8ee\J	.	.	.	.	.	.	.	.
=97	=97	=97	=97	=97	=97	=97	=97	=97	=97	=97	=97	=97
4Gn\	X 6	4g\	8b\L	8ee\L	4G\	ter-	4B\	ter-	4g\	ter-	4ee\	ter-
.	.	.	8b\	8ee\	.	.	.	.	.	.	.	.
4G\	.	4g\	8b\	8ee\	4G\	-ra	4B\	-ra	4g\	-ra	4ee\	-ra
.	.	.	8b\	8ee\J	.	.	.	.	.	.	.	.
*	*	*	*	*	*	*	*	*	*	*	*	*ij
!	!	!	!	!LO:LB:g=original	!	!	!	!	!	!	!	!
4G\	.	4g\	8b\	8ee\L	4G\	à	4B\	à	4g\	à	4ee\	in-
.	.	.	8b\J	8ee\J	.	.	.	.	.	.	.	.
!	!	!	!	!	!	!	!	!	!LO:LB:g=original	!	!	!
!	!	!	!	!	!LO:LB:g=original	!	!	!	!	!	!	!
=98	=98	=98	=98	=98	=98	=98	=98	=98	=98	=98	=98	=98
2F#\	7 #	4f#\	8cc#\L	8ee\L	4F#\	ter-	4.A#X\	ter-	4.c#\	ter-	4.ee\	-o-
.	.	.	8b\	8dd\	.	.	.	.	.	.	.	.
.	.	4F#/	8cc#\	8ee\	4F#\	-ra	.	.	.	.	.	.
.	.	.	8a#X\J	8cc#\	.	.	8B\	-ra	8c#\	-ra	8ee\	-pem
*	*	*	*	*	*	*	*	*	*	*	*	*Xij
4B\	.	4B/	4b\	8dd\	4B\	sus-	4B\	sus-	4d\	sus-	4dd\	sus-
.	.	.	.	8ee\J	.	.	.	.	.	.	.	.
!	!	!	!	!	!	!	!LO:LB:g=original	!	!	!	!	!
=99	=99	=99	=99	=99	=99	=99	=99	=99	=99	=99	=99	=99
4A\	X 6	4A/	4cc#\	8ff#\L	8A\	-ci-	8c#\	-ci-	8f#\	-ci-	8cc#\	-ci-
.	.	.	.	8gg\J	8A\	-tans	8c#\	-tans	8f#\	-tans	8cc#\	-tans
2G\	X 7	4G/	2b\	2ee\	4.G\	in-	4d\	in-	4.f#\	in-	4.b\	in-
.	X 6	4g\	.	.	.	.	4B\	-o-	.	.	.	.
.	.	.	.	.	8G\	-o-	.	.	8e\	-o-	8b\	-o-
=100	=100	=100	=100	=100	=100	=100	=100	=100	=100	=100	=100	=100
!	!	!LO:SIC:s=4f#	!	!	!	!	!	!	!	!	!	!
4F#\	X #	4g\	8a#X\L	16ff#\LL	4F#\	-pem	4A#X\	-pem	4f#\	-pem	4cc#,\	-pem
.	.	.	.	16ee\	.	.	.	.	.	.	.	.
.	.	.	8cc#\	16ff#\	.	.	.	.	.	.	.	.
.	.	.	.	16gg\JJ	.	.	.	.	.	.	.	.
4B\	.	4b\	8dd\	8ff#\L	4B\	&	4B\	&	4f#\	&	4dd\	et
.	.	.	8b\	8dd\	.	.	.	.	.	.	.	.
4B\	.	4B/	8cc#\	8ee\	4B\	de	4B\	de	4f#\	de	4dd\	de
.	.	.	8dd\J	8ff#\J	.	.	.	.	.	.	.	.
!	!	!	!	!	!	!	!	!	!	!	!LO:SIC:custos ee:v	!
!	!	!LO:LB:g=original	!	!	!	!	!	!	!	!	!LO:LB:g=original	!
=101	=101	=101	=101	=101	=101	=101	=101	=101	=101	=101	=101	=101
4.E\	.	4E/	16ee\LL	16gg\LL	4.E\	ster-	4.B\	ster-	4.g\	ster-	4.ee\	Ster-
.	.	.	16dd\	16ff#\	.	.	.	.	.	.	.	.
.	.	.	16ee\	16gg\	.	.	.	.	.	.	.	.
.	.	.	16ff#\JJ	16aa\JJ	.	.	.	.	.	.	.	.
.	.	4e\	8ee\L	8gg\L	.	.	.	.	.	.	.	.
8E\	.	.	8cc#\	8ee\	8E\	-co-	8B\	-co-	8g\	-co-	8ee\	-co-
4A\	.	4A/	8dd\	8ff#\	4A\	-re	4A\	-re	4e\	-re	4cc#\	-re
.	.	.	8ee\J	8gg\J	.	.	.	.	.	.	.	.
=102	=102	=102	=102	=102	=102	=102	=102	=102	=102	=102	=102	=102
4D\	.	4d\	16dd\LL	16ff#\LL	4D\	e-	4A\	e-	4f#\	e-	4dd\	e-
.	.	.	16cc#\	16ee\	.	.	.	.	.	.	.	.
.	.	.	16dd\	16ff#\	.	.	.	.	.	.	.	.
.	.	.	16ee\JJ	16gg\JJ	.	.	.	.	.	.	.	.
4F#\	X #	4f#\	8cc#\L	8ff#\L	8F#\	-ri-	8A#X\	-ri-	8f#\	-ri-	8cc#\	-ri-
.	.	.	8cc#\	8ee\	8F#\	-gens	8A#\	-gens	8f#\	-gens	8cc#\	-gens
*	*	*	*	*	*	*	*	*	*	*	*	*ij
4G\	.	4g\	8a\	8dd\	4G\	e-	4B\	e-	4d\	e-	4b\	e-
.	.	.	8dd\J	8bb\J	.	.	.	.	.	.	.	.
=103	=103	=103	=103	=103	=103	=103	=103	=103	=103	=103	=103	=103
4E\	.	4e\	8.ee\L	8cc#\L	8E\	-ri-	8e\	-ri-	8g\	-ri-	8b\	-ri-
.	.	.	.	8bb\J	8E\	-gens	8e\	-gens	8g\	-gens	8b,\	-gens
*	*	*	*	*	*	*	*	*	*	*	*	*Xij
.	.	.	16dd\Jk	.	.	.	.	.	.	.	.	.
*	*reverse	*	*	*	*	*	*	*	*	*	*	*
!	!	!	!	!LO:TX:a:t=P:problem:mixed beam	!	!	!	!	!	!	!	!
!	!	!	!LO:LB:g=original	!	!	!	!	!	!	!	!	!
2F#\	X 4#	4f#\	4.cc#\	8f#/L	4.F#\	pau-	4.c#\	pau-	4.f#\	in-	4b\	pau-
*	*Xrevere	*	*	*	*	*	*	*	*	*	*	*
.	.	.	.	8bb\	.	.	.	.	.	.	.	.
.	.	4F#/	.	8cc#/	.	.	.	.	.	.	4a#X\	-pe-
.	.	.	8cc#\	8aa#X\J	8F#\	-pe-	8c#\	-pe-	8f#\	-o-	.	.
=104	=104	=104	=104	=104	=104	=104	=104	=104	=104	=104	=104	=104
2BB/	.	4B/	4dd\	8r	2BB/	-rem	2B\	-rem	2f#\	-pem	2b\	-rem
.	.	.	.	8b\L	.	.	.	.	.	.	.	.
!LO:TX:a:i:t=ſ.	!	!	!	!	!	!	!	!	!	!	!	!
.	.	4r	8r	8ff#\	.	.	.	.	.	.	.	.
.	.	.	8dd\	8bb\J	.	.	.	.	.	.	.	.
4F#\	X #	4f#\	8cc#\L	8aa#X\L	4r	.	4r	.	4r	.	4r	.
.	.	.	16b\L	16gg#X\L	.	.	.	.	.	.	.	.
.	.	.	16cc#\JJ	16aa#\JJ	.	.	.	.	.	.	.	.
!LO:LB:g=original	!	!	!	!LO:LB:g=original	!	!	!	!	!	!	!	!
=105	=105	=105	=105	=105	=105	=105	=105	=105	=105	=105	=105	=105
!LO:SIC:s=4BBn	!	!	!	!	!	!	!	!	!	!	!LO:TX:a:t=2.	!
!	!	!	!	!	!LO:N:vis=0	!	!LO:N:vis=0	!	!LO:N:vis=0	!	!LO:N:vis=0	!
4BB#X/	.	4f#\	4dd\	8bb\L	1.r	.	1.r	.	1.r	.	1.r	.
.	.	.	.	8b\	.	.	.	.	.	.	.	.
4r	.	4r	8r	8cc#\	.	.	.	.	.	.	.	.
.	.	.	8dd\	8ff#\J	.	.	.	.	.	.	.	.
!LO:SIC:s=4BBn	!	!	!	!	!	!	!	!	!	!	!	!
4BB#/	7 #	4d#X\	16ff#\LL	16aan\LL	.	.	.	.	.	.	.	.
.	.	.	16ee\	16gg\	.	.	.	.	.	.	.	.
.	.	.	16ff#\	16aa\	.	.	.	.	.	.	.	.
.	.	.	16dd\JJ	16ff#\JJ	.	.	.	.	.	.	.	.
=106	=106	=106	=106	=106	=106	=106	=106	=106	=106	=106	=106	=106
4E\	.	4B/	8ee\L	8gg\L	.	.	.	.	.	.	.	.
.	.	.	16dd\L	16ff#\L	.	.	.	.	.	.	.	.
.	.	.	16cc#\JJ	16ee\JJ	.	.	.	.	.	.	.	.
8D\L	X 6	4r	8b/L	8ff#\L	.	.	.	.	.	.	.	.
8E\J	.	.	8b/J	16ee\L	.	.	.	.	.	.	.	.
.	.	.	.	16dd\JJ	.	.	.	.	.	.	.	.
4F#\	X #	4f#\	4a#X/	4cc#t\	.	.	.	.	.	.	.	.
!	!	!	!	!	!	!	!	!	!	!	!LO:SIC:custos dd:v	!
!	!	!	!	!	!	!	!	!	!LO:PB:g=original	!	!LO:PB:g=original	!
=107	=107	=107	=107	=107	=107	=107	=107	=107	=107	=107	=107	=107
!LO:TX:a:i:t=T.	!	!	!	!	!	!	!	!	!	!	!	!
4BB/	.	4f#\	4b/	4b\	4BB/	Ut	4B\	Ut	4f#\	Ut	4dd\	Ut
4BB/	.	4B/	8r	8r	4BB/	col-	4B\	col-	4f#\	col-	4dd\	col-
.	.	.	8dd\	8bb\	.	.	.	.	.	.	.	.
!	!	!	!	!	!	!	!	!	!	!	!LO:SIC:l:s=-lo-	!
4C#/	X 6	4c#/	8ee\L	16aa\LL	8C#/	-lo-	8A\	-lo-	8a\	-lo-	8ee\	-le-
.	.	.	.	16bb\	.	.	.	.	.	.	.	.
.	.	.	8ee\J	16aa\	8C#/	-cet	8A\	-cet	8a\	-cet	8ee\	-cet
.	.	.	.	16bb\JJ	.	.	.	.	.	.	.	.
=108	=108	=108	=108	=108	=108	=108	=108	=108	=108	=108	=108	=108
!	!	!	!	!LO:TX:a:t=P:problem:mixed beam	!	!	!	!	!	!	!	!
!	!	!	!LO:TX:a:t=P:problem:mixed beam	!	!	!	!	!	!	!	!	!
4D\	.	4.d\	8ff#\L	8aa\L	4D\	e-	4A/	e-	4a\	e-	4ff#\	e-
.	.	.	8f#/J	8a/J	.	.	.	.	.	.	.	.
8D\L	.	.	8ff#\L	8aa\L	8D\L	-um	8F#/L	-um	8a\L	-um	8ff#\L	-um
8E\J	.	8e\	8ee\	8gg\	8E\J	.	8G/J	.	8g\J	.	8ee\J	.
4F#\	.	4f#\	8dd\	8ff#\	4F#\	cum	4A/	cum	4f#\	cum	4dd\	cum
.	.	.	8cc#\J	8ee\J	.	.	.	.	.	.	.	.
=109	=109	=109	=109	=109	=109	=109	=109	=109	=109	=109	=109	=109
4G\	.	8g\L	4b/	4dd\|	4G\	prin-	4B\	prin-	4b\	prin-	4dd\	prin-
.	.	8f#\J	.	.	.	.	.	.	.	.	.	.
!	!	!	!	!	!	!	!LO:LB:g=original	!	!	!	!	!
2E\	X 7	4.e\	4b/	4dd\|	4.E\	-ci-	4B\	-ci-	4.g\	-ci-	4dd\	-ci-
.	X 6	.	4g/	4cc#\|	.	.	4e\	-pi-	.	.	4cc#\	-pi-
.	.	8e\	.	.	8E\	-pi-	.	.	8g\	-pi-	.	.
=110	=110	=110	=110	=110	=110	=110	=110	=110	=110	=110	=110	=110
4D/	.	4f#\	4a/	4dd\	4D\	-bus	4A\	-bus	4f#\	-bus,	4dd\	-bus,
4D#X/	X 6	8r	4b/	4ff#\	4D#X\	cum	4B\	cum	4f#\	cum	4b\	cum
.	.	8f#\L	.	.	.	.	.	.	.	.	.	.
4BB/	X #	8d#X\	4b/	4ff#\	4BB/	prin-	4d#X\	prin-	4f#\	prin-	4b\	prin-
.	.	8f#\J	.	.	.	.	.	.	.	.	.	.
=111	=111	=111	=111	=111	=111	=111	=111	=111	=111	=111	=111	=111
4.E\	.	4.e\	4.b\	4gg\	4.E\	-ci-	4.B\	-ci-	4.g\	-ci-	4.b\	-ci-
.	.	.	.	8ee\L	.	.	.	.	.	.	.	.
8D\	.	8d\L	8b\	8ff#\	8Dn\	-pi-	8B\	-pi-	8f#\	-pi-	8b\	-pi-
!	!	!LO:SIC:s=8cn	!	!	!	!	!	!	!	!	!	!
4Cn/	X 6	8c#\	4ee\	8gg\	4Cn/	-bus	4cn\	-bus	4e\	-bus	4ee\	-bus
.	.	8e\J	.	8aa\J	.	.	.	.	.	.	.	.
!	!	!LO:LB:g=original	!	!	!	!	!	!	!	!	!	!
=112	=112	=112	=112	=112	=112	=112	=112	=112	=112	=112	=112	=112
!	!	!LO:SIC:s=8d#	!	!	!	!	!	!	!	!	!	!
2BB/	X #	8d\L	2dd#X\	4bb\	4.BB/	po-	4.F#/	po-	4.f#\	po-	4.dd#X\	po-
.	.	8b\	.	.	.	.	.	.	.	.	.	.
.	.	8f#X\	.	4b/	.	.	.	.	.	.	.	.
.	.	8d#X\J	.	.	8BB/	-pu-	8F#/	-pu-	8f#\	-pu-	8dd#\	-pu-
!	!	!	!	!	!	!	!	!	!	!	!LO:SIC:custos dd:v	!
!	!	!	!	!	!	!	!	!	!	!	!LO:LB:g=original	!
!	!	!	!LO:LB:g=original	!	!	!	!	!	!	!	!	!
4BB/	.	4f#\	4dd#X\	4bb\	4BB/	-li	4F#/	-li	4f#\	-li	4dd#\	-li
=113	=113	=113	=113	=113	=113	=113	=113	=113	=113	=113	=113	=113
4r	.	4r	4r	4r	4r	.	4r	.	4r	.	4r	.
*	*	*	*	*	*	*	*	*	*	*	*	*ij
4G\	X 6	8g\L	4ee\	8bb\L	4G\	cum	4B\	cum	4g\	cum	4ee\	cum
.	.	8f#\J	.	8aa\	.	.	.	.	.	.	.	.
!	!	!LO:SIC:s=8e	!	!	!	!	!	!	!	!	!	!
4E\	.	8d\L	4ee\	8gg\	4E\	prin-	4B\	prin-	4g\	prin-	4ee\	prin-
!	!	!LO:SIC:s=16f#	!	!	!	!	!	!	!	!	!	!
.	.	16e\L	.	8ff#\J	.	.	.	.	.	.	.	.
!	!	!LO:SIC:s=16g	!	!	!	!	!	!	!	!	!	!
.	.	16f#\JJ	.	.	.	.	.	.	.	.	.	.
!	!	!	!	!LO:LB:g=original	!	!	!	!	!	!	!	!
=114	=114	=114	=114	=114	=114	=114	=114	=114	=114	=114	=114	=114
!	!	!LO:SIC:s=4.a	!LO:SIC:s=4.ccn	!	!	!	!	!	!	!	!	!
4.A\	X 6	4.g\	4.cc-X\	[>4ee\	4.A\	-ci-	4.cn\	-ci-	4.e\	-ci-	4.ee\	-ci-
.	.	.	.	8ee\L]	.	.	.	.	.	.	.	.
!	!	!LO:SIC:s=8g	!	!	!	!	!	!	!	!	!	!
8G\L	X 6	8f#\L	8ee\L	8ee\	8G\	-pi-	8B\	-pi-	8e\	-pi-	8ee\	-pi-
!	!	!LO:SIC:s=8f#	!	!	!	!	!	!	!	!	!	!
8F#\	X 6/	8e\	8dd#X\	8ff#\	8F#\L	-bus'	8A\L	-bus	8f#\L	-bus	8dd#X\L	-bus
!	!	!LO:SIC:s=8e	!	!	!	!	!	!	!	!	!	!
8E\J	.	8d\J	8ee\J	8gg\J	8E\J	.	8B\J	.	8g\J	.	8ee\J	.
!	!	!	!	!	!	!	!	!	!LO:LB:g=original	!	!	!
=115	=115	=115	=115	=115	=115	=115	=115	=115	=115	=115	=115	=115
2D#X\	X 6	4.d#X\	4b\	8ff#\L	4D#X\	po-	4B\	po-	4f#\	po-	4ff#\	po-
.	.	.	.	8dd#X\J	.	.	.	.	.	.	.	.
.	.	.	4ff#\	4b/	8D#\	-pu-	8d#X\	-pu-	8f#\	-pu-	8b\	-pu-
.	.	8d#\	.	.	8D#\	-li	8B\	-li	8f#\	-li	8b,\	-li
*	*	*	*	*	*	*	*	*	*	*ij	*	*Xij
!LO:LB:g=original	!	!	!	!	!	!	!	!	!	!	!	!
4E\	7 #	4e\	[>4ee\	4gg\|	4E\	po-	8B\L	po-	4g\	po-	4b\	po-
.	.	.	.	.	.	.	8e\J	.	.	.	.	.
=116	=116	=116	=116	=116	=116	=116	=116	=116	=116	=116	=116	=116
4AA/	X -	4a\	4ee\]	4ff#\|	8AA/	-pu-	8e\	-pu-	8a\	-pu-	4ccn\	-pu-
.	.	.	.	.	8AA/	-li	8e\	-li	8a\	-li	.	.
*	*reverse	*	*	*	*	*	*	*	*	*Xij	*	*
2BB/	X 4#	4b\	4.dd#X\	4.ff#\	2BB/	su-	2d#X\	su-	2f#\	su-	4cc\	-li
*	*Xreverse	*	*	*	*	*	*	*	*	*	*	*
.	.	4B/	.	.	.	.	.	.	.	.	4b\	Su-
.	.	.	8ee\	8ee\	.	.	.	.	.	.	.	.
=117	=117	=117	=117	=117	=117	=117	=117	=117	=117	=117	=117	=117
4E\	.	4e\	4ee\	8e/	4E\	-i	2e\	-i	2g\	-i	2b\	-i
!	!	!	!	!LO:TX:a:t=P:problem:mixed beam	!	!	!	!	!	!	!	!
.	.	.	.	8ee\L	.	.	.	.	.	.	.	.
!	!	!	!	!	!LO:LB:g=original	!	!	!	!	!	!	!
!LO:TX:a:i:t=ſ.	!	!	!	!	!	!	!	!	!	!	!	!
4r	.	4r	8r	8b\	4r	.	.	.	.	.	.	.
.	.	.	8a/	8e/J	.	.	.	.	.	.	.	.
!	!	!	!	!LO:SIC:s=16ccn	!	!	!	!	!	!	!	!
4A\	X -	4e\	16a/LL	16cc-X\LL	4r	.	4r	.	4r	.	4r	.
.	.	.	16g/	16b\	.	.	.	.	.	.	.	.
.	.	.	16a/	16cc-\	.	.	.	.	.	.	.	.
.	.	.	16b/JJ	16dd\JJ	.	.	.	.	.	.	.	.
=118	=118	=118	=118	=118	=118	=118	=118	=118	=118	=118	=118	=118
!	!	!	!	!	!LO:N:vis=0	!	!LO:N:vis=0	!	!LO:N:vis=0	!	!LO:N:vis=0	!
!	!	!	!	!LO:TX:a:t=P:problem:mixed beam	!	!	!	!	!	!	!	!
4E\	.	4e\	8g/L	8b\L	1.r	.	1.r	.	1.r	.	1.r	Qui
.	.	.	8dd/	8ee\	.	.	.	.	.	.	.	.
4r	.	4r	8b/	8b\	.	.	.	.	.	.	.	ha-
!	!	!	!	!	!	!	!	!	!	!	!LO:TX:b:t=2	!
.	.	.	8g/J	8e/J	.	.	.	.	.	.	.	.
4E\	7 #	4g#X\	16b/LL	16dd\LL	.	.	.	.	.	.	.	-bi-
.	.	.	16a/	16cc#\	.	.	.	.	.	.	.	.
.	.	.	16b/	16dd\	.	.	.	.	.	.	.	.
.	.	.	16g#X/JJ	16b\JJ	.	.	.	.	.	.	.	.
=119	=119	=119	=119	=119	=119	=119	=119	=119	=119	=119	=119	=119
!	!	!	!	!LO:SIC:s=8ccn	!	!	!	!	!	!	!	!
4A\	X -	4e\	8a/L	8cc-X\L	.	.	.	.	.	.	.	-ta-
.	.	.	16g/L	16b\L	.	.	.	.	.	.	.	.
.	.	.	16f#/JJ	16a\JJ	.	.	.	.	.	.	.	.
!LO:TX:a:t=P:problem:mixed beam	!	!	!	!	!	!	!	!	!	!	!	!
8E\L	.	4r	8e/L	8b/L	.	.	.	.	.	.	.	-re
8A\	.	.	8e/J	16a/L	.	.	.	.	.	.	.	.
.	.	.	.	16g/JJ	.	.	.	.	.	.	.	.
8B\	X #	4B/	4d#X/	4f#/	.	.	.	.	.	.	.	.
8BB/J	.	.	.	.	.	.	.	.	.	.	.	.
!	!	!	!	!	!	!	!LO:PB:g=original	!	!	!	!LO:LB:g=original	!
=120	=120	=120	=120	=120	=120	=120	=120	=120	=120	=120	=120	=120
4E\	.	4B/	4e/	4e/	4E\	Qui	4B\	Qui	4g\	Qui	4b\	Qui
!LO:TX:a:i:t=T.	!	!	!	!	!	!	!	!	!	!	!	!
4G\	.	4G/	4r	4r	4G\	ha-	4G/	ha-	4g\	ha-	4b\	ha-
.	.	.	.	.	.	.	.	.	.	.	.	.
4E\	.	4E/	4r	4r	4E\	-bi-	4B\	-bi-	4g\	-bi-	4ee\	-bi-
.	.	.	.	.	.	.	.	.	.	.	.	.
!	!	!	!LO:LB:g=original	!	!	!	!	!	!	!	!	!
=121	=121	=121	=121	=121	=121	=121	=121	=121	=121	=121	=121	=121
4B\	X #	4B/	8b\L	(>8dd#X\L	4B\	-ta-	4B\	-ta-	4f#\	-ta-	4dd#X\	ta-
.	.	.	8cc#\	8ee\	.	.	.	.	.	.	.	.
4B\	.	4B/	8dd#X\	8ff#\	4B\	-re	4B\	-re	4f#\	-re	4dd#\	-re
.	.	.	8b\	8dd#\	.	.	.	.	.	.	.	.
4r	.	4r	8cc#\	8ee\	4r	.	4r	.	4r	.	4r	.
.	.	.	8dd#\J	8ff#\J)	.	.	.	.	.	.	.	.
!	!	!	!	!LO:LB:g=original	!	!	!	!	!	!	!	!
=122	=122	=122	=122	=122	=122	=122	=122	=122	=122	=122	=122	=122
*	*	*	*	*	*	*	*	*	*	*	*	*ij
!	!	!	!	!LO:TX:a:t=P:problem:mixed beam	!	!	!	!	!	!	!	!
!	!	!	!LO:TX:a:t=P:problem:mixed beam	!	!	!	!	!	!	!	!	!
4E\	.	4e\	8ee\L	8gg\L	4E\	qui	4B\	qui	4g\	qui	4b\	Qui
.	.	.	8e/J	8g/J	.	.	.	.	.	.	.	.
4G\	.	4g\	16b\LL	16ee\LL	8G\	ha-	8B\	ha-	8g\	ha-	8b\	ha-
.	.	.	16b\	16ff#\	.	.	.	.	.	.	.	.
.	.	.	16b\	16ee\	8G\	-bi-	8B\	-bi-	8g\	-bi-	8b\	-bi-
.	.	.	16b\JJ	16ff#\JJ	.	.	.	.	.	.	.	.
4E\	.	4e\	16ee\LL	16gg\LL	8E\	-ta-	8B\	-ta-	8g\	-ta-	8ee\	-ta-
.	.	.	16ee\	16aa\	.	.	.	.	.	.	.	.
.	.	.	16ee\	16gg\	8E\	-re	8B\	-re	8g\	-re	8ee\	-re
*	*	*	*	*	*	*	*	*	*	*	*	*Xij
.	.	.	16ee\JJ	16aa\JJ	.	.	.	.	.	.	.	.
=123	=123	=123	=123	=123	=123	=123	=123	=123	=123	=123	=123	=123
4B\	X #	4b\	4dd#X\	4ff#\|	4B\	fa-	4B\	fa-	4f#\	fa-	4dd#X\	fa-
.	.	.	.	.	.	.	.	.	.	.	.	.
4B\	.	4B/	4dd#\	4ff#\|	4B\	-cit	4B\	-cit	4f#\	-cit	4b\	-cit
!	!	!	!	!	!	!	!	!	!	!	!LO:SIC:custos ee:v	!
!	!	!	!	!	!	!	!	!	!	!	!LO:LB:g=original	!
.	.	.	.	.	.	.	.	.	.	.	.	.
4r	.	4r	4r	4r	4r	.	4r	.	4r	.	4r	.
.	.	.	.	.	.	.	.	.	.	.	.	.
!	!	!	!	!	!	!	!	!	!LO:LB:g=original	!	!	!
=124	=124	=124	=124	=124	=124	=124	=124	=124	=124	=124	=124	=124
8G\L	.	8g\L	2.r	2.r	8G\	fa-	8B\	fa-	2.r	.	2.r	.
8A\	.	8a\	.	.	8A\	-cit	8cn\	-cit	.	.	.	.
!	!	!	!	!	!	!	!	!	!	!	!LO:TX:b:t=1	!
8B\	.	8b\	.	.	8B\	ste-	8d\	ste-	.	.	.	.
!	!	!LO:SIC:s=8ccn	!	!	!	!	!	!	!	!	!	!
8cn\	.	8cc#\	.	.	8cn\	-ri-	8e\	-ri-	.	.	.	.
8B\	.	8b\	.	.	8B\	-lem	8d\	-lem	.	.	.	.
8A\J	.	8a\J	.	.	8A\	in	8c\	in	.	.	.	.
=125	=125	=125	=125	=125	=125	=125	=125	=125	=125	=125	=125	=125
4G\	.	4g\	8g/L	8b\L	[>2.G\	do-	[>2.B\	do-	8g\	fa-	8b\	fa-
.	.	.	8a/	8ccn\	.	.	.	.	8a\	-cit	8ccn\	-cit
4G\	.	4G/	8b/	8dd\	.	.	.	.	8b\	ste-	8dd\	ste-
!	!	!	!	!	!	!	!	!	!	!	!LO:SIC:custos ee:v	!
!	!	!	!	!	!	!	!	!	!	!	!LO:LB:g=original	!
!	!	!	!LO:SIC:s=8ccn	!	!	!	!	!	!	!	!	!
.	.	.	8cc-X/	8ee\	.	.	.	.	8ccn\	-ri-	8ee\	-ri-
4r	.	4G/	8b/	8dd\	.	.	.	.	8b\	-lem	8dd\	-lem
.	.	.	8a/J	8cc\J	.	.	.	.	8a\	in	8ccn\	in
!LO:LB:g=original	!	!LO:LB:g=original	!	!	!	!	!	!	!	!	!	!
=126	=126	=126	=126	=126	=126	=126	=126	=126	=126	=126	=126	=126
8G\L	.	8G/L	4g/	4b/	8G\L]	.	8B\L]	.	[>2.g\	do-	[>2.b\	do-
8A\	.	8A/	.	.	8A\	.	8cn\	.	.	.	.	.
8B\	.	8B/	4G/	4B/	8B\	.	8d\	.	.	.	.	.
!	!	!LO:SIC:s=8cn	!	!	!	!	!	!	!	!	!	!
8cn\	.	8c#/	.	.	8cn\	.	8e\	.	.	.	.	.
8B\	.	8B/	4G/	4B/	8B\	.	8d\	.	.	.	.	.
8A\J	.	8A/J	.	.	8A\J	.	8c\J	.	.	.	.	.
=127	=127	=127	=127	=127	=127	=127	=127	=127	=127	=127	=127	=127
4G\	.	4g\	8g/L	8b\L	[>2.G\	.	2.B\	.	8g\L]	.	8b\L]	.
!	!	!	!	!LO:SIC:s=8ccn	!	!	!	!	!	!	!	!
.	.	.	8a/	8cc-X\	.	.	.	.	8a\	.	8ccn\	.
4r	.	4G/	8b/	8dd\	.	.	.	.	8b\	.	8dd\	.
!	!	!	!LO:SIC:s=8ccn	!	!	!	!	!	!	!	!	!
.	.	.	8cc-X/	8ee\	.	.	.	.	8ccn\	.	8ee\	.
4r	.	4G/	8b/	8dd\	.	.	.	.	8b\	.	8dd\	.
!	!	!	!	!LO:SIC:s=8ccn	!	!	!	!	!	!	!	!
.	.	.	8a/J	8cc-\J	.	.	.	.	8a\J	.	8ccn\J	.
=128	=128	=128	=128	=128	=128	=128	=128	=128	=128	=128	=128	=128
4G\	.	8G/	4g/	4b/	4G\]	.	4d\	.	4g\	.	4b\	.
.	.	4.d\	.	.	.	.	.	.	.	.	.	.
4D\	.	.	4f#/	4a/	4D\	-mo	4d\	-mo	4f#\	-mo	4a\	-mo
.	.	.	.	.	.	.	.	.	.	.	.	.
!	!	!	!	!	!LO:PB:g=original	!	!	!	!	!	!	!
4r	.	4r	4r	4r	4r	.	4r	.	4r	.	4r	.
.	.	.	.	.	.	.	.	.	.	.	.	.
!	!	!	!	!	!	!	!LO:LB:g=original	!	!	!	!LO:LB:g=original	!
=129	=129	=129	=129	=129	=129	=129	=129	=129	=129	=129	=129	=129
8D\L	.	8d\L	2.r	2.r	8D\	ma-	8F#/	ma-	2.r	.	2.r	-o-
8E\	.	8e\	.	.	8E\	-trem	8G/	-trem	.	.	.	.
!	!	!	!	!	!	!	!	!	!	!	!LO:TX:b:t=1	!
8F#\	.	8f#\	.	.	8F#\L	fi-	8A\L	fi-	.	.	.	.
8G\	.	8g\	.	.	8G\J	.	8B\J	.	.	.	.	.
8F#\	.	8f#\	.	.	8F#\L	-li-	8A\L	-li-	.	.	.	.
8E\J	.	8e\J	.	.	8E\J	.	8G\J	.	.	.	.	.
=130	=130	=130	=130	=130	=130	=130	=130	=130	=130	=130	=130	=130
2D\	.	4d\	8f#/L	8dd\L	[>2.D\	-o-	[<2.F#/	-o-	8f#\	ma-	8dd\	Ma-
.	.	.	8g/	8ee\	.	.	.	.	8g\	-trem	8ee\	-trem
.	.	4D/	8a/	8ff#\	.	.	.	.	8a\L	fi-	8ff#\L	fi-
.	.	.	8b/J	8gg\	.	.	.	.	8b\J	.	8gg\J	.
!	!	!	!LO:LB:g=original	!	!	!	!	!	!	!	!	!
4r	.	4D/	8a/L	8ff#\	.	.	.	.	8a\L	-li-	8ff#\L	-li-
.	.	.	8g/J	8ee\J	.	.	.	.	8g\J	.	8ee\J	.
!	!	!	!	!	!	!	!	!	!	!	!LO:LB:g=original	!
=131	=131	=131	=131	=131	=131	=131	=131	=131	=131	=131	=131	=131
8D\L	.	8D/L	4f#/	4dd\	8D\L]	.	8F#/L]	.	[>2.f#\	-o-	[>2.dd\	-o-
8E\	.	8E/	.	.	8E\	.	8G/	.	.	.	.	.
8F#\	.	8F#/	4f#/	4d/	8F#\	.	8A/	.	.	.	.	.
8G\	.	8G/	.	.	8G\	.	8B/	.	.	.	.	.
8F#\	.	8F#/	4f#/	4d/	8F#\	.	8A/	.	.	.	.	.
8E\J	.	8E/J	.	.	8E\J	.	8G/J	.	.	.	.	.
!	!	!	!	!LO:LB:g=original	!	!	!	!	!	!	!	!
=132	=132	=132	=132	=132	=132	=132	=132	=132	=132	=132	=132	=132
4D\	.	4d\	8f#/L	8dd\L	[>2.D\	.	2.F#/	.	8f#\L]	.	8dd\L]	.
.	.	.	8g/	8ee\	.	.	.	.	8g\	.	8ee\	.
4r	.	4D/	8a/	8ff#\	.	.	.	.	8a\	.	8ff#\	.
.	.	.	8b/	8gg\	.	.	.	.	8b\	.	8gg\	.
4r	.	4D/	8a/	8ff#\	.	.	.	.	8a\	.	8ff#\	.
.	.	.	8g/J	8ee\J	.	.	.	.	8g\J	.	8ee\J	.
!	!	!	!	!	!	!	!	!	!LO:LB:g=original	!	!	!
=133	=133	=133	=133	=133	=133	=133	=133	=133	=133	=133	=133	=133
8D\L	.	8d\L	8f#/L	4dd\	8D\L]	.	8A/L	.	8f#\L	.	4dd\	-rum
8E\	.	8e\	8g/	.	8E\	.	8G/	.	8g\	.	.	.
8F#\	.	8f#\	8a/	4d/	8F#\	.	8F#/	.	8a\	.	4dd,\	lae-
8D\	.	8d\	8f#/	.	8D\	.	8A/	.	8f#\	.	.	.
8E\	.	8e\	8g/	4d/	8E\	.	8G/	.	8g\	.	4dd\	-tan-
8F#\J	.	8f#\J	8a/J	.	8F#\J	.	8F#/J	.	8a\J	.	.	.
!LO:LB:g=original	!	!	!	!	!	!	!	!	!	!	!	!
=134	=134	=134	=134	=134	=134	=134	=134	=134	=134	=134	=134	=134
4G\	.	4g\	4g/	8r	4G\	.	4B\	.	4g\	.	4dd\	-tem
.	.	.	.	8dd\	.	.	.	.	.	.	.	.
4BB/	X 6	4B\	8r	4gg\	4BB/	-rum	4d\	-rum	4g\	.	4dd\	.
.	.	.	8dd\	.	.	.	.	.	.	.	.	.
*	*	*	*	*	*	*	*	*	*	*	*	*ij
!	!	!LO:SIC:s=4cn	!	!	!	!	!	!	!	!	!	!
4Cn/	.	4d-X\	4gg\	8r	4Cn/	lae-	4e\	lae-	4g\	-rum	4ccn\	lae-
.	.	.	.	8g/	.	.	.	.	.	.	.	.
=135	=135	=135	=135	=135	=135	=135	=135	=135	=135	=135	=135	=135
2.D/	X 4	4d\	8r	4gg\	2.D/	-tan-	2.d\	-tan-	2g\	lae-	2.a\	-tan-
.	X 3	.	8d/	.	.	.	.	.	.	.	.	.
.	.	4D/	4dd\	4a/	.	.	.	.	.	.	.	.
.	.	4D/	4d/	4ff#\	.	.	.	.	4f#\	-tan-	.	.
=136	=136	=136	=136	=136	=136	=136	=136	=136	=136	=136	=136	=136
4GG/	.	4g\	8g/L	8b\L	2GG/	-tem	2d\	-tem	2g\	-tem	2b\	-tem
*	*	*	*	*	*	*	*	*	*	*	*	*Xij
.	.	.	8a/	8cc-X\	.	.	.	.	.	.	.	.
4GG/	.	4G/	8b/	8dd\	.	.	.	.	.	.	.	.
!	!	!	!LO:SIC:s=8ccn	!	!	!	!	!	!	!	!	!
.	.	.	8cc-X/	8ee\	.	.	.	.	.	.	.	.
4GG/	.	4G/	8b/	8dd\	4r	.	4r	.	4r	.	4r	.
.	.	.	8a/J	8cc-\J	.	.	.	.	.	.	.	.
=137	=137	=137	=137	=137	=137	=137	=137	=137	=137	=137	=137	=137
!	!	!	!	!	!LO:N:vis=00	!	!LO:N:vis=0	!	!LO:N:vis=0	!	!LO:N:vis=0	!
4GG/	.	4G/	8g/L	8b\L	0.r	.	1.r	.	1.r	.	1.r	.
!	!	!	!LO:SIC:s=8ccn	!	!	!	!	!	!	!	!	!
.	.	.	8cc-X/	8ee\	.	.	.	.	.	.	.	.
!	!	!	!	!	!	!	!	!	!	!	!LO:TX:a:t=3.	!
4GG/	.	4r	8b/	8dd\	.	.	.	.	.	.	.	.
.	.	.	8a/	8cc-X\	.	.	.	.	.	.	.	.
4GG/	.	4r	8g/	8b\	.	.	.	.	.	.	.	.
!	!	!	!LO:SIC:s=8ccn	!	!	!	!	!	!	!	!	!
.	.	.	8cc-/J	8ee\J	.	.	.	.	.	.	.	.
=138	=138	=138	=138	=138	=138	=138	=138	=138	=138	=138	=138	=138
4GG/	.	4g\	8b/L	8dd\L	.	.	.	.	.	.	.	.
.	.	.	8a/	8cc-X\	.	.	.	.	.	.	.	.
4GG/	.	4G/	8g/	8b\	.	.	.	.	.	.	.	.
!	!	!	!LO:SIC:s=8ccn	!	!	!	!	!	!	!	!	!
.	.	.	8cc-X/	8ee\	.	.	.	.	.	.	.	.
4GG/	.	4G/	8b/	8dd\	.	.	.	.	.	.	.	.
.	.	.	8a/J	8cc-\J	.	.	.	.	.	.	.	.
!	!	!	!LO:LB:g=original	!	!	!	!	!	!	!	!	!
=139	=139	=139	=139	=139	=139	=139	=139	=139	=139	=139	=139	=139
8GG/L	.	8G/L	8b/L	8dd\L	.	.	2.r	.	2.r	.	2.r	.
!	!	!LO:SIC:s=8cn	!	!	!	!	!	!	!	!	!	!
8Cn/J	.	8c-X/J	8g/J	8ee\J	.	.	.	.	.	.	.	.
4D/	.	4d\	2f#/	2a/	.	.	.	.	.	.	.	.
4DD/	.	4d\	.	.	.	.	.	.	.	.	.	.
!	!	!	!	!	!	!	!	!	!	!	!LO:SIC:custos dd:v	!
!	!	!	!	!	!	!	!	!	!	!	!LO:LB:g=original	!
=140	=140	=140	=140	=140	=140	=140	=140	=140	=140	=140	=140	=140
!	!	!	!	!	!	!	!	!	!	!	!LO:TX:a:i:t=Soli	!
4GG/	.	4d\	2g/	2g/	.	.	4.G/	Glo-	4.b\	Glo-	4.dd\	Glo-
*clefC4	*	*	*	*	*	*	*	*	*	*	*	*
8G\L	.	4r	.	.	.	.	.	.	.	.	.	.
8A\	.	.	.	.	.	.	8A/	-ri-	8a\	-ri-	8ccn\	-ri-
8B\	.	4r	4r	4r	.	.	8B\L	-a	4g\	-a	4b\	-a
8c#\J	.	.	.	.	.	.	8c#\J	.	.	.	.	.
!	!	!	!	!LO:LB:g=original	!	!	!LO:LB:g=original	!	!	!	!	!
=141	=141	=141	=141	=141	=141	=141	=141	=141	=141	=141	=141	=141
!	!	!LO:N:vis=00	!LO:N:vis=00	!LO:N:vis=00	!LO:N:vis=00	!	!	!	!	!	!	!
2d\	.	0.r	0.r	0.r	0.r	.	2d\	Pa-	2f#\	Pa-	2a\	Pa-
4d\	.	.	.	.	.	.	4d\	-tri	4f#\	-tri	4a\	-tri
=142	=142	=142	=142	=142	=142	=142	=142	=142	=142	=142	=142	=142
4e\	.	.	.	.	.	.	4e\	glo-	4e\	glo-	4g\	glo-
4c#\	.	.	.	.	.	.	4c#\	-ri-	8e\L	-ri-	8g\L	-ri-
.	.	.	.	.	.	.	.	.	8g\J	.	8b\J	.
4A\	.	.	.	.	.	.	4A\	-a	8f#\L	-a	8a\L	-a
.	.	.	.	.	.	.	.	.	8e\J	.	8g\J	.
!LO:LB:g=original	!	!	!	!	!	!	!	!	!	!	!	!
=143	=143	=143	=143	=143	=143	=143	=143	=143	=143	=143	=143	=143
4.d\	.	.	.	.	.	.	4.d\	Fi-	4.d\	Fi-	4.f#/	Fi-
8d\	.	.	.	.	.	.	8d\	-li-	8d\	-li-	8f#/	-li-
4d\	.	.	.	.	.	.	4d\	-o	4d\	-o	4f#/	-o
=144	=144	=144	=144	=144	=144	=144	=144	=144	=144	=144	=144	=144
*clefF4	*	*	*	*	*	*	*	*	*	*	*	*
4G\	.	.	.	.	.	.	4G/	glo-	4d\	glo-	4b\	Glo-
4E\	X 6	.	.	.	.	.	4E/	-ri-	4e\	-ri-	4cc#\	-ri-
4D\	.	.	.	.	.	.	4D/	-a	4f#\	-a	4dd\	-a
!	!	!	!	!	!	!	!	!	!LO:LB:g=original	!	!	!
=145	=145	=145	=145	=145	=145	=145	=145	=145	=145	=145	=145	=145
*	*	*	*	*	*	*	*	*	*	*	*	*ij
!	!	!LO:N:vis=0	!LO:N:vis=0	!LO:N:vis=0	!LO:N:vis=0	!	!	!	!	!	!	!
4.A\	.	1.r	1.r	1.r	1.r	.	4.A/	glo-	4.e\	glo-	4.cc#\	Glo-
8G\	.	.	.	.	.	.	8G/	-ri-	8e\	-ri-	8cc#\	-ri-
4F#\	.	.	.	.	.	.	4F#/	-a	4e\	-a	4dd\	-a
*	*	*	*	*	*	*	*	*	*	*	*	*Xij
!	!	!	!	!	!	!	!	!	!	!	!LO:LB:g=original	!
=146	=146	=146	=146	=146	=146	=146	=146	=146	=146	=146	=146	=146
4c#\	X 6	.	.	.	.	.	4c#\	Spi-	4a\	Spi-	4ee\	Spi-
4d\	.	.	.	.	.	.	4d\	-ri-	4a\	-ri-	4ff#\	-ri-
4G\	.	.	.	.	.	.	8G/	-tu-	8g\	-tu-	8ee\	-tu-
.	.	.	.	.	.	.	8G/	-i	8f#\	-i	8dd\	-i
=147	=147	=147	=147	=147	=147	=147	=147	=147	=147	=147	=147	=147
2A\	.	2.r	2.r	2.r	2.r	.	2A/	San-	2e\	San-	4cc#\	San-
.	.	.	.	.	.	.	.	.	.	.	8dd\L	.
.	.	.	.	.	.	.	.	.	.	.	8ee\J	.
4r	.	.	.	.	.	.	4A/	-cto	4e\	-cto	4a\	-cto
!	!	!	!	!	!LO:LB:g=original	!	!	!	!	!	!	!
=148	=148	=148	=148	=148	=148	=148	=148	=148	=148	=148	=148	=148
4D\	.	4d\|	4d/	4d/	8D\	Si-	8A/	Si-	8f#\	Si-	8dd\	Si-
.	.	.	.	.	8D\	-cut	8A/	-cut	8f#\	-cut	8dd\	-cut
4F#\	.	4f#\|	4f#/	4f#/	8F#\	e-	8A/	e-	8f#\	e-	8dd\	e-
.	.	.	.	.	8F#\	-rat	8A/	-rat	8f#\	-rat	8dd\	-rat
4A\	.	4a\|	4a/	4a/	8A\	in	8A/	in	8e\	in	8cc#\	in
.	.	.	.	.	8A\	prin-	8A/	prin-	8e\	prin-	8cc#\	prin-
=149	=149	=149	=149	=149	=149	=149	=149	=149	=149	=149	=149	=149
!	!	!	!	!LO:TX:a:t=P:problem:mixed beam	!	!	!	!	!	!	!	!
4D\	.	4d\	8d/L	8d/L	8.D\	-ci-	8.A/	-ci-	8.f#\	-ci-	8.dd\	-ci-
.	.	.	8f#/	8a\	.	.	.	.	.	.	.	.
.	.	.	.	.	16D\	-pi-	16A/	-pi-	16f#\	-pi-	16dd\	-pi-
4D\	.	4r	8a/	8dd\	4D\	-o	4A/	-o	4f#\	-o	4dd\	-o
.	.	.	8dd/J	8ff#\J	.	.	.	.	.	.	.	.
!	!	!	!	!	!	!	!LO:LB:g=original	!	!	!	!	!
4r	.	4a\	8cc#\L	8ee\L	4r	.	4r	.	4r	.	4r	.
.	.	.	16b\L	16dd\L	.	.	.	.	.	.	.	.
.	.	.	16cc#\JJ	16ee\JJ	.	.	.	.	.	.	.	.
!	!	!	!	!	!	!	!	!	!	!	!LO:SIC:custos dd:v	!
!	!	!LO:LB:g=original	!	!	!	!	!	!	!	!	!LO:LB:g=original	!
=150	=150	=150	=150	=150	=150	=150	=150	=150	=150	=150	=150	=150
4D\	.	4d\	4dd\	4ff#\	4D\	&	4A/	&	4f#\	&	4dd\	et
4F#\	.	4f#\	4f#/	4f#/	4F#\	nunc	4A/	nunc	4f#\	nunc	4dd\	nunc
4A\	.	4a\	4a/	4a/	4A\	&	4A/	&	4e\	&	4cc#\	et
=151	=151	=151	=151	=151	=151	=151	=151	=151	=151	=151	=151	=151
!	!	!	!LO:TX:a:t=P:problem:mixed beam	!LO:LB:g=original	!	!	!	!	!	!	!	!
4D\	.	4d\	8d/L	8d/L	4D\	sem-	4A/	sem-	4f#\	sem-	4dd\	Sem-
.	.	.	8a\J	8ff#\	.	.	.	.	.	.	.	.
4D\	.	4r	8dd\L	8aa\	4D\	-per	4A/	-per	4f#\	-per	4dd\	-per
.	.	.	8ff#\J	8ddd\J	.	.	.	.	.	.	.	.
4r	.	4a\	8ee\L	8ccc#\L	4r	.	4r	.	4r	.	4r	.
.	.	.	16dd\L	16bb\L	.	.	.	.	.	.	.	.
.	.	.	16ee\JJ	16ccc#\JJ	.	.	.	.	.	.	.	.
=152	=152	=152	=152	=152	=152	=152	=152	=152	=152	=152	=152	=152
!	!	!	!LO:TX:a:t=P:problem:mixed beam	!	!	!	!	!	!	!	!	!
8r	.	8.d\L	8ff#\L	4ddd\	8r	.	8r	.	8r	.	8r	.
8D\L	.	.	8a/	.	8D\	&	8A/	&	8a\	&	8a\	et
.	.	16e\K	.	.	.	.	.	.	.	.	.	.
8D\	.	8f#\	8a/	8r	8D\	nunc	8A/	nunc	8a\	nunc	8a\	nunc
*	*	*	*	*	*	*	*	*	*	*	*	*ij
8E\J	.	8g\	8a/	8a/L	8E\	&	8G#X/	&	8a\	&	8a\	et
!LO:LB:g=original	!	!	!	!	!	!	!	!	!LO:LB:g=original	!	!	!
8F#\L	.	8a\	8a/	8a/	8F#\	nunc	8F#/	nunc	8a\	nunc	8a\	nunc
*	*	*	*	*	*	*	*	*	*	*	*	*Xij
8D\J	.	8e\J	8a/J	8a/J	8D\	&	8d\	&	8a\	&	8a\	et
=153	=153	=153	=153	=153	=153	=153	=153	=153	=153	=153	=153	=153
8G\L	X 9	8d\L	8a/L	16b\LL	8G\	sem-	4d\	sem-	4a\	sem-	4b\	Sem-
!	!	!	!	!LO:SIC:s=16ccn	!	!	!	!	!	!	!	!
.	.	.	.	16cc-X\	.	.	.	.	.	.	.	.
8F#\	.	8f#\	8a/	16b\	8F#\	.	.	.	.	.	.	.
!	!	!	!	!LO:SIC:s=16ccn	!	!	!	!	!	!	!	!
.	.	.	.	16cc-\JJ	.	.	.	.	.	.	.	.
8G\	X 8	8g\	8g/	16b\LL	8G\L	-per	4d\	-per	4g\	-per	4b\	-per
!	!	!	!	!LO:SIC:s=16ccn	!	!	!	!	!	!	!	!
.	.	.	.	16cc-\	.	.	.	.	.	.	.	.
8A\	.	8a\	8g/	16b\	8A\J	.	.	.	.	.	.	.
!	!	!	!	!LO:SIC:s=16ccn	!	!	!	!	!	!	!	!
.	.	.	.	16cc-\JJ	.	.	.	.	.	.	.	.
8B\	.	8b\	8g/	16b\LL	8B\L	&	8d\	&	8g\	&	8b\	et
!	!	!	!	!LO:SIC:s=16ccn	!	!	!	!	!	!	!	!
.	.	.	.	16cc-\	.	.	.	.	.	.	.	.
8G\J	.	8g\J	8g/J	16b\	8G\J	in	8d\	in	8g\	in	8b\	in
!	!	!	!	!LO:SIC:s=16ccn	!	!	!	!	!	!	!	!
.	.	.	.	16cc-\JJ	.	.	.	.	.	.	.	.
!	!	!	!	!	!	!	!	!	!	!	!LO:SIC:custos a:v	!
!	!	!	!	!	!	!	!	!	!	!	!LO:LB:g=original	!
!	!	!	!LO:LB:g=original	!	!LO:LB:g=original	!	!	!	!	!	!	!
=154	=154	=154	=154	=154	=154	=154	=154	=154	=154	=154	=154	=154
8D\L	X 4	8d\L	8g/L	16a/LL	8D\L	sae-	4d\	sae-	4g\	sae-	4a\	Sae-
.	.	.	.	16b/	.	.	.	.	.	.	.	.
8C#\	.	8c#\	8g/	16a/	8C#\J	.	.	.	.	.	.	.
.	.	.	.	16b/JJ	.	.	.	.	.	.	.	.
8D\	X 3	8d\	8f#/	16a/LL	8D\L	-cu-	8d\	-cu-	8f#\	-cu-	8a\	-cu-
.	.	.	.	16b/	.	.	.	.	.	.	.	.
8E\	.	8e\	8f#/	16a/	8E\J	.	8d\	-la	8f#\	-la	8a\	-la
.	.	.	.	16b/JJ	.	.	.	.	.	.	.	.
!	!	!	!	!LO:LB:g=original	!	!	!	!	!	!	!	!
8F#\	.	8f#\	8f#/	16a/LL	8F#\L	-la	8d\	sae-	8f#\	Sae-	8a\	Sae-
.	.	.	.	16b/	.	.	.	.	.	.	.	.
8D\J	.	8d\J	8f#/J	16a/	8D\J	.	8d\	-cu-	8f#\	-cu-	8a\	-cu-
.	.	.	.	16b/JJ	.	.	.	.	.	.	.	.
=155	=155	=155	=155	=155	=155	=155	=155	=155	=155	=155	=155	=155
8E\L	X 9	8e\L	8f#/L	16g/LL	8E\	sae-	4B\	-lo-	4f#\	-lo-	4g/	-lo-
.	.	.	.	16a/	.	.	.	.	.	.	.	.
8D\	.	8d\	8f#/	16g/	8D\	-cu-	.	.	.	.	.	.
.	.	.	.	16a/JJ	.	.	.	.	.	.	.	.
8E\	X 8	8e\	8e/	16g/LL	8E\L	-lo-	4B\	-rum	4e\	-rum	4g/	-rum
.	.	.	.	16a/	.	.	.	.	.	.	.	.
8F#\	.	8f#\	8e/	16g/	8F#\	.	.	.	.	.	.	.
.	.	.	.	16a/JJ	.	.	.	.	.	.	.	.
8G\	.	8g\	8e/	16g/LL	8G\	.	8B\L	sae-	8e\	sae-	8g/	Sae-
.	.	.	.	16a/	.	.	.	.	.	.	.	.
8A\J	.	8a\J	8e/J	16g/	8A\J	.	8c#\J	-cu-	8e\	-cu-	8g/	-cu-
.	.	.	.	16a/JJ	.	.	.	.	.	.	.	.
=156	=156	=156	=156	=156	=156	=156	=156	=156	=156	=156	=156	=156
8D\L	X 9	8d\L	8e/L	16f#/LL	8D\L	.	2.A/	-lo-	4e\	-lo-	2.f#/	-lo-
.	.	.	.	16g/	.	.	.	.	.	.	.	.
8C#\	.	8c#\	8e/	16f#/	8C#\	.	.	.	.	.	.	.
.	.	.	.	16g/JJ	.	.	.	.	.	.	.	.
8D\	X 8	8d\	8d/	16f#/LL	8D\	.	.	.	2d\	.	.	.
.	.	.	.	16g/	.	.	.	.	.	.	.	.
8E\	.	8e\	8d/	16f#/	8E\	.	.	.	.	.	.	.
.	.	.	.	16g/JJ	.	.	.	.	.	.	.	.
8F#\	.	8f#\	8d/	16f#/LL	8F#\	.	.	.	.	.	.	.
.	.	.	.	16g/	.	.	.	.	.	.	.	.
8D\J	.	8d\J	8d/J	16f#/	8D\J	.	.	.	.	.	.	.
.	.	.	.	16g/JJ	.	.	.	.	.	.	.	.
=157	=157	=157	=157	=157	=157	=157	=157	=157	=157	=157	=157	=157
!	!	!	!LO:TX:a:t=P:problem:mixed beam	!LO:TX:a:t=P:problem:mixed beam	!	!	!	!	!	!	!	!
4A\	.	8A/L	8c#/L	8e/L	4A\	-rum	4A/	-rum	4c#\	-rum	4e/	-rum
.	.	8e/J	8cc#\	8aa\	.	.	.	.	.	.	.	.
8r	.	4a\	8cc#\	8ee\	8r	.	8r	.	8r	.	8r	.
8A\	.	.	8cc#\J	8a\J	8A\	&	8A/	&	8e\	&	8cc#\	et
!	!	!	!	!	!	!	!LO:LB:g=original	!	!	!	!	!
4D\	.	4d\	16dd\LL	16ff#\LL	4D\	sem-	4A/	sem-	4f#\	sem-	4dd\	Sem-
.	.	.	16cc#\	16ee\	.	.	.	.	.	.	.	.
.	.	.	16dd\	16ff#\	.	.	.	.	.	.	.	.
.	.	.	16ee\JJ	16gg\JJ	.	.	.	.	.	.	.	.
=158	=158	=158	=158	=158	=158	=158	=158	=158	=158	=158	=158	=158
4AA/	.	8r	8cc#\L	8ee\L	4AA/	-per	4A/	-per	4e\	-per	4cc#\	-per
.	.	8e\	8cc#\	8aa\	.	.	.	.	.	.	.	.
8r	.	4a\	8cc#\	8ee\	8r	.	8r	.	8r	.	8r	.
8A\	.	.	8cc#\J	8a\J	8A\	in	8e\	in	8e\	in	8cc#\	in
4A\	.	4c#\	16ee\LL	16gg\LL	8.A\	sae-	8.e\	sae-	8.g\	Sae-	8.cc#\	Sae-
.	.	.	16dd\	16ff#\	.	.	.	.	.	.	.	.
.	.	.	16ee\	16gg\	.	.	.	.	.	.	.	.
!	!	!	!	!	!	!	!	!	!	!	!LO:SIC:custos dd:v	!
!	!	!	!	!	!	!	!	!	!	!	!LO:LB:g=original	!
.	.	.	16cc#\JJ	16aa\JJ	16A\	-cu-	16e\	-cu-	16g\	-cu-	16dd\	-cu-
=159	=159	=159	=159	=159	=159	=159	=159	=159	=159	=159	=159	=159
!	!	!	!LO:TX:a:t=P:problem:mixed beam	!	!	!	!	!	!	!	!	!
4D\	.	8r	8dd\L	8ff#\L	4D\	-la	4d\	-la	4f#\	-la	4dd\	-la
.	.	8A/	8f#/	8dd\J	.	.	.	.	.	.	.	.
8r	.	4d\	8f#/	8a/L	8r	.	8r	.	8r	.	8r	.
!	!	!	!	!	!	!	!	!	!LO:LB:g=original	!	!	!
8D\	.	.	8f#/J	8d/J	8d\	&	8d\	&	8f#\	&	8a\	et
4G\	.	4g\	16g/LL	16b\LL	4G\	sem-	4d\	sem-	4g\	sem-	4b\	Sem-
.	.	.	16f#/	16a\	.	.	.	.	.	.	.	.
.	.	.	16g/	16b\	.	.	.	.	.	.	.	.
!	!	!	!	!LO:SIC:s=16ccn	!	!	!	!	!	!	!	!
.	.	.	16a/JJ	16cc-X\JJ	.	.	.	.	.	.	.	.
!LO:LB:g=original	!	!	!	!	!	!	!	!	!	!	!	!
=160	=160	=160	=160	=160	=160	=160	=160	=160	=160	=160	=160	=160
4D\	.	8r	8f#/L	8a\L	4D\	-per	4d\	-per	4f#\	-per	4a\	-per
.	.	8A/	8f#/	8dd\J	.	.	.	.	.	.	.	.
8r	.	4d\	8f#/	8a/L	8r	.	8r	.	8r	.	8r	.
8D\	X 7-	.	8f#/J	8d/J	8D\	in	8A\	in	8f#\	in	8a\	in
!	!	!	!	!LO:SIC:s=16ccn	!	!	!	!	!	!	!	!
!	!	!	!	!	!LO:LB:g=original	!	!	!	!	!	!	!
4D\	.	4f#\	16a/LL	16cc-X\LL	8.D\	sae-	8.A\	sae-	8.f#\	sae-	8.ccn\	Sae-
.	.	.	16g/	16b\	.	.	.	.	.	.	.	.
!	!	!	!	!LO:SIC:s=16ccn	!	!	!	!	!	!	!	!
.	.	.	16a/	16cc-\	.	.	.	.	.	.	.	.
.	.	.	16f#/JJ	16dd\JJ	16D\	-cu-	16A\	-cu-	16f#\	-cu-	16cc\	-cu-
!	!	!	!LO:LB:g=original	!	!	!	!	!	!	!	!	!
=161	=161	=161	=161	=161	=161	=161	=161	=161	=161	=161	=161	=161
!	!	!	!	!LO:TX:a:t=P:problem:mixed beam	!	!	!	!	!	!	!	!
4G\	.	8r	8g/L	8b\L	4.G\	-la	4B\	-la	4g\	-la	4b\	-la
.	.	8B\	8g/	8dd\	.	.	.	.	.	.	.	.
8r	.	4e\	8g/	8b\	.	.	8r	.	8r	.	8r	.
*	*	*	*	*	*	*	*	*ij	*	*	*	*ij
8E\	7 #	.	8g#X/J	8e/J	8E\	in	8B\	in	8g#X\	in	8b\	in
4E\	.	4g#X\	16b/LL	16dd\LL	8.E\	sae-	8.B\	sae-	8.g#\	sae-	8.dd\	Sae-
.	.	.	16a/	16cc#\	.	.	.	.	.	.	.	.
.	.	.	16b/	16dd\	.	.	.	.	.	.	.	.
.	.	.	16g#X/JJ	16ee\JJ	16E\	-cu-	16B\	-cu-	16g#\	-cu-	16dd\	-cu-
=162	=162	=162	=162	=162	=162	=162	=162	=162	=162	=162	=162	=162
4A\	.	8r	8a\L	8cc#\L	4A\	-la	4c#\	-la	4a\	-la	4cc#\	-la
*	*	*	*	*	*	*	*	*Xij	*	*	*	*Xij
.	.	8A/	8a\	8a\	.	.	.	.	.	.	.	.
8r	.	4c#\	8aa\	8aa\	8r	.	8r	.	8r	.	8r	.
8A\L	.	.	8cc#\	8gg\	8A\	&	8c#\	&	8a\	&	8ee\	et
8d\	.	8d\L	8a\	8ff#\	8d\	nunc	8A\	nunc	8a\	nunc	8ff#\	nunc
8c#\J	.	8e\J	8cc#\J	8ee\J	8c#\	&	8A\	&	8a\	&	8ee\	et
!	!	!	!	!	!	!	!	!	!	!	!LO:LB:g=original	!
=163	=163	=163	=163	=163	=163	=163	=163	=163	=163	=163	=163	=163
8B\L	.	8f#\L	(>16dd\LL	8dd/L	8B\	sem-	8B\	sem-	8f#\	sem-	8dd\	Sem-
.	.	.	16ee\J	.	.	.	.	.	.	.	.	.
8A\	.	8a\	8ff#\J)	8cc#/	8A\	-per	8c#\	-per	8a\	-per	8cc#\	-per
8G\	.	8g\	8ff#\L	8b/	8G\	&	8d\	&	8d\	&	8b\	et
8F#\	.	8f#\	8dd\J	8a/	8F#\	in	8A/	in	8f#\	in	8dd\	in
8E\	X 6	8e\	8ee\L	8g/	8E\	sae-	8G/	sae-	8a\	sae-	8cc#\	Sae-
8D\J	.	8d\J	16ff#\L	8f#/J	8D\	-cu-	8A/	-cu-	8f#\	-cu-	8dd\	-cu-
.	.	.	16gg\JJ	.	.	.	.	.	.	.	.	.
!	!	!	!	!	!	!	!LO:LB:g=original	!	!	!	!	!
=164	=164	=164	=164	=164	=164	=164	=164	=164	=164	=164	=164	=164
!	!	!	!	!LO:TX:a:t=P:problem:mixed beam	!	!	!	!	!	!	!	!
4C#/	X 6	4c#\	8aa\L	8e/L	4C#/	-la	4c#\	-la	4a\	-la	4ee\	-la
.	.	.	16cc#\L	16ee\L	.	.	.	.	.	.	.	.
.	.	.	16ee\JJ	16ff#\JJ	.	.	.	.	.	.	.	.
4r	.	4r	8ff#\L	8aa\L	4r	.	4r	.	4r	.	4r	.
.	.	.	8ee\	8gg\	.	.	.	.	.	.	.	.
8D\L	.	8d\L	8dd\	8ff#\	8D\	sae-	8f#\	Sae-	8a\	sae-	8dd\	Sae-
8A\J	.	8a\J	8cc#\J	8ee\J	8A\	-cu-	8e\	-cu-	8a\	-cu-	8cc#\	-cu-
!	!	!LO:LB:g=original	!	!	!	!	!	!	!LO:LB:g=original	!	!	!
=165	=165	=165	=165	=165	=165	=165	=165	=165	=165	=165	=165	=165
8B\L	.	8b\L	8b\L	8dd\L	8B\	-lo-	8d\	-lo-	8f#\	-lo-	8dd\	-lo-
8G\J	.	8g\J	8b\J	8gg\J	8G\	-rum	8B\	-rum	8g\	-rum	8dd\	-rum
2A\	X 4	4a\	2cc#\	2eeT\	2A\	a-	2A\	a-	2e\	a-	(>4dd\	a-
.	X 3	4A/	.	.	.	.	.	.	.	.	4cc#\)	.
=166	=166	=166	=166	=166	=166	=166	=166	=166	=166	=166	=166	=166
!	!	!	!	!LO:TX:a:t=P:problem:mixed beam	!	!	!	!	!	!	!	!
4D/	.	4r	8dd\L	8dd\L	4D/	-men	4A\	-men	4f#\	-men	4dd\	-men
.	.	.	8a\J	8dd\	.	.	.	.	.	.	.	.
!LO:TX:a:i:t=ſ.	!	!	!	!	!	!	!	!	!	!	!	!
4r	.	4d\	8f#/L	8a\	4r	.	4r	.	4r	.	4r	.
.	.	.	8f#/J	8d/J	.	.	.	.	.	.	.	.
*	*	*	*	*	*	*	*	*	*	*	*	*ij
4D/	6 4	4r	16g/LL	16b\LL	4D/	a-	4d\	a-	4g\	a-	4b\	a-
.	.	.	16f#/	16a\	.	.	.	.	.	.	.	.
.	.	.	16g/	16b\	.	.	.	.	.	.	.	.
.	.	.	16a/JJ	16cc#\JJ	.	.	.	.	.	.	.	.
=167	=167	=167	=167	=167	=167	=167	=167	=167	=167	=167	=167	=167
4D/	5 3	4r	8f#/L	8a\L	4D/	-men	4d\	-men	4f#\	-men	4a\	-men
.	.	.	8f#/	8dd\J	.	.	.	.	.	.	.	.
4r	.	4d\	8f#/	8a/L	4r	.	4r	.	4r	.	4r	.
.	.	.	8f#/J	8d/J	.	.	.	.	.	.	.	.
!	!	!	!	!LO:SIC:s=16ccn	!	!	!	!	!	!	!	!
!	!	!	!	!	!	!	!	!	!	!	!LO:SIC:custos cc:v	!
!	!	!	!	!	!	!	!	!	!	!	!LO:LB:g=original	!
!	!	!	!	!LO:LB:g=original	!	!	!	!	!	!	!	!
4D/	X 7-	4r	16a/LL	16cc-X\LL	4D/	a-	4f#\	a-	4a\	a-	4ccn\	a-
.	.	.	16g/	16a\	.	.	.	.	.	.	.	.
!	!	!	!	!LO:SIC:s=16ccn	!	!	!	!	!	!	!	!
.	.	.	16a/	16cc-\	.	.	.	.	.	.	.	.
.	.	.	16f#/JJ	16dd\JJ	.	.	.	.	.	.	.	.
!	!	!	!LO:LB:g=original	!	!LO:LB:g=original	!	!	!	!	!	!	!
=168	=168	=168	=168	=168	=168	=168	=168	=168	=168	=168	=168	=168
4G\	.	4g\	8g\L	8b/L	4G\	-men	4d\	-men	4g\	-men	4b,\	-men
.	.	.	8dd\	16a/L	.	.	.	.	.	.	.	.
.	.	.	.	16g/JJ	.	.	.	.	.	.	.	.
*	*	*	*	*	*	*ij	*	*ij	*	*ij	*	*
!	!	!	!	!LO:TX:a:t=P:problem:mixed beam	!	!	!	!	!	!	!	!
8F#\L	X 6	8f#\L	8dd\	8a/L	8F#\	a-	8d\	a-	8a\	a-	8dd\	a-
8G\J	.	8g\J	8dd\J	8bb\J	8G\	-men	8B\	-men	8g\	-men	8dd\	-men
*	*	*	*	*	*	*Xij	*	*Xij	*	*Xij	*	*Xij
!	!	!LO:TX:a:t=P:problem:mixed beam	!	!	!	!	!	!	!	!	!	!
!LO:LB:g=original	!	!	!	!	!	!	!	!	!	!	!	!
4A\	.	8a\L	8.cc#\L	8ee\L	4A\	a-	4A\	a-	4e\	a-	8dd\L	a-
.	.	8A/J	.	8aa\J	.	.	.	.	.	.	8cc#\J	.
.	.	.	16cc#\Jk	.	.	.	.	.	.	.	.	.
=169	=169	=169	=169	=169	=169	=169	=169	=169	=169	=169	=169	=169
4D/	.	4d\	4dd\	4ff#\	4D\	-men.	4A\	-men.	4f#\	-men.	4dd\	-men
2r	.	4r	4r	4r	4r	.	4r	.	4r	.	4r	.
.	.	4r	4r	4r	4r	.	4r	.	4r	.	4r	.
==;	==;	==	==;	==;	==;	==	==;	==	==;	==	==;	==
*-	*-	*-	*-	*-	*-	*-	*-	*-	*-	*-	*-	*-
!!!system-decoration: [g1][g2]s8
!!!RDF**kern: > = above
!!!RDF**kern: < = below
!!!EED: Antoni Szymański
!!!EST: 2021-01-03
!!!ENC:Anastazja Marusiak
!!!END:2020-07-08
!!!RDF**kern: | = vertical stroke
